nanshenwei/CAPSTONE_ARM/Software/robodk/test/joint_path_with_speed.csv
J1, J2, J3, J4, J5, J6, ERROR, STEP_MM, STEP_DEG, MOVE_ID, TIME_S, X_TCP, Y_TCP, Z_TCP, SPEED_J1, SPEED_J2, SPEED_J3, SPEED_J4, SPEED_J5, SPEED_J6, ACCEL_J1, ACCEL_J2, ACCEL_J3, ACCEL_J4, ACCEL_J5, ACCEL_J6
-160.0000000, -135.0000000, 165.0000000, -130.0000000, 89.9900000, 180.0000000, 0.0000000, 0.0000000, 0.0000000, 1.0000000, 0.0000000, 220.7657423, 74.3217241, 181.7674262, 0.0000000, 0.0000000, 0.0000000, 0.0000000, 0.0000000, 0.0000000, 0.0000000, 0.0000000, 0.0000000, 0.0000000, 0.0000000, 0.0000000
-159.9985987, -134.9983636, 164.9975000, -129.9982587, 89.9899901, 179.9984235, 0.0000000, 0.0181886, 0.0025000, 2.0000000, 0.0100000, 220.7759989, 74.3315010, 181.7788297, 0.1401345, 0.1636421, -0.2500000, 0.1741347, -0.0009897, -0.1576513, 14.0134529, 16.3642096, -25.0000000, 17.4134669, -0.0989700, -15.7651345
-159.9943946, -134.9934543, 164.9900000, -129.9930346, 89.9899604, 179.9936939, 0.0000000, 0.0545661, 0.0100000, 2.0000000, 0.0100000, 220.8067654, 74.3608345, 181.8130412, 0.4204036, 0.4909263, -0.7500000, 0.5224040, -0.0029691, -0.4729540, 28.0269058, 32.7284193, -50.0000000, 34.8269339, -0.1979400, -31.5302691
-159.9873879, -134.9852722, 164.9775000, -129.9843279, 89.9899109, 179.9858114, 0.0000000, 0.0909448, 0.0225000, 2.0000000, 0.0100000, 220.8580322, 74.4097333, 181.8700637, 0.7006726, 0.8182105, -1.2500000, 0.8706733, -0.0049485, -0.7882567, 28.0269058, 32.7284193, -50.0000000, 34.8269339, -0.1979400, -31.5302691
-159.9775785, -134.9738173, 164.9600000, -129.9721385, 89.9898416, 179.9747758, 0.0000000, 0.1273253, 0.0400000, 2.0000000, 0.0100000, 220.9297833, 74.4782117, 181.9499025, 0.9809417, 1.1454947, -1.7500000, 1.2189427, -0.0069279, -1.1035594, 28.0269058, 32.7284193, -50.0000000, 34.8269339, -0.1979400, -31.5302691
-159.9649664, -134.9590895, 164.9375000, -129.9564663, 89.9897526, 179.9605872, 0.0000000, 0.1637086, 0.0625000, 2.0000000, 0.0100000, 221.0219963, 74.5662898, 182.0525646, 1.2612108, 1.4727789, -2.2500000, 1.5672120, -0.0089073, -1.4188621, 28.0269058, 32.7284193, -50.0000000, 34.8269339, -0.1979400, -31.5302691
-159.9495516, -134.9410888, 164.9100000, -129.9373115, 89.9896437, 179.9432455, 0.0000000, 0.2000952, 0.0900000, 2.0000000, 0.0100000, 221.1346423, 74.6739932, 182.1780594, 1.5414798, 1.8000631, -2.7500000, 1.9154814, -0.0108867, -1.7341648, 28.0269058, 32.7284193, -50.0000000, 34.8269339, -0.1979400, -31.5302691
-159.9313341, -134.9198154, 164.8775000, -129.9146740, 89.9895150, 179.9227508, 0.0000000, 0.2364860, 0.1225000, 2.0000000, 0.0100000, 221.2676860, 74.8013534, 182.3263981, 1.8217489, 2.1273473, -3.2500000, 2.2637507, -0.0128661, -2.0494675, 28.0269058, 32.7284193, -50.0000000, 34.8269339, -0.1979400, -31.5302691
-159.9103139, -134.8952691, 164.8400000, -129.8885538, 89.9893666, 179.8991031, 0.0000000, 0.2728818, 0.1600000, 2.0000000, 0.0100000, 221.4210856, 74.9484077, 182.4975940, 2.1020179, 2.4546314, -3.7500000, 2.6120200, -0.0148455, -2.3647702, 28.0269058, 32.7284193, -50.0000000, 34.8269339, -0.1979400, -31.5302691
-159.8864910, -134.8674499, 164.7975000, -129.8589509, 89.9891983, 179.8723024, 0.0000000, 0.3092832, 0.2025000, 2.0000000, 0.0100000, 221.5947930, 75.1151987, 182.6916626, 2.3822870, 2.7819156, -4.2500000, 2.9602894, -0.0168249, -2.6800729, 28.0269058, 32.7284193, -50.0000000, 34.8269339, -0.1979400, -31.5302691
-159.8598655, -134.8363579, 164.7500000, -129.8258653, 89.9890103, 179.8423487, 0.0000000, 0.3456911, 0.2500000, 2.0000000, 0.0100000, 221.7887533, 75.3017748, 182.9086212, 2.6625561, 3.1091998, -4.7500000, 3.3085587, -0.0188043, -2.9953756, 28.0269058, 32.7284193, -50.0000000, 34.8269339, -0.1979400, -31.5302691
-159.8304372, -134.8019931, 164.6975000, -129.7892971, 89.9888025, 179.8092419, 0.0000000, 0.3821061, 0.3025000, 2.0000000, 0.0100000, 222.0029055, 75.5081901, 183.1484892, 2.9428251, 3.4364840, -5.2500000, 3.6568281, -0.0207837, -3.3106783, 28.0269058, 32.7284193, -50.0000000, 34.8269339, -0.1979400, -31.5302691
-159.7982063, -134.7643554, 164.6400000, -129.7492461, 89.9885748, 179.7729821, 0.0000000, 0.4185291, 0.3600000, 2.0000000, 0.0100000, 222.2371817, 75.7345041, 183.4112880, 3.2230942, 3.7637682, -5.7500000, 4.0050974, -0.0227631, -3.6259809, 28.0269058, 32.7284193, -50.0000000, 34.8269339, -0.1979400, -31.5302691
-159.7631726, -134.7234449, 164.5775000, -129.7057124, 89.9883274, 179.7335692, 0.0000000, 0.4549608, 0.4225000, 2.0000000, 0.0100000, 222.4915075, 75.9807821, 183.6970412, 3.5033632, 4.0910524, -6.2500000, 4.3533667, -0.0247425, -3.9412836, 28.0269058, 32.7284193, -50.0000000, 34.8269339, -0.1979400, -31.5302691
-159.7253363, -134.6792615, 164.5100000, -129.6586960, 89.9880602, 179.6910034, 0.0000000, 0.4914019, 0.4900000, 2.0000000, 0.0100000, 222.7658021, 76.2470944, 184.0057741, 3.7836323, 4.4183366, -6.7500000, 4.7016361, -0.0267219, -4.2565863, 28.0269058, 32.7284193, -50.0000000, 34.8269339, -0.1979400, -31.5302691
-159.6846973, -134.6318053, 164.4375000, -129.6081970, 89.9877732, 179.6452845, 0.0000000, 0.5278532, 0.5625000, 2.0000000, 0.0100000, 223.0599780, 76.5335174, 184.3375141, 4.0639013, 4.7456208, -7.2500000, 5.0499054, -0.0287013, -4.5718890, 28.0269058, 32.7284193, -50.0000000, 34.8269339, -0.1979400, -31.5302691
-159.6412556, -134.5810762, 164.3600000, -129.5542152, 89.9874664, 179.5964126, 0.0000000, 0.5643153, 0.6400000, 2.0000000, 0.0100000, 223.3739408, 76.8401323, 184.6922907, 4.3441704, 5.0729050, -7.7500000, 5.3981747, -0.0306807, -4.8871917, 28.0269058, 32.7284193, -50.0000000, 34.8269339, -0.1979400, -31.5302691
-159.5950112, -134.5270743, 164.2775000, -129.4967508, 89.9871398, 179.5443876, 0.0000000, 0.6007892, 0.7225000, 2.0000000, 0.0100000, 223.7075897, 77.1670262, 185.0701352, 4.6244395, 5.4001892, -8.2500000, 5.7464441, -0.0326601, -5.2024944, 28.0269058, 32.7284193, -50.0000000, 34.8269339, -0.1979400, -31.5302691
-159.5459641, -134.4697996, 164.1900000, -129.4358037, 89.9867934, 179.4892096, 0.0000000, 0.6372754, 0.8100000, 2.0000000, 0.0100000, 224.0608171, 77.5142910, 185.4710809, 4.9047085, 5.7274734, -8.7500000, 6.0947134, -0.0346395, -5.5177971, 28.0269058, 32.7284193, -50.0000000, 34.8269339, -0.1979400, -31.5302691
-159.4941143, -134.4092520, 164.0975000, -129.3713738, 89.9864272, 179.4308786, 0.0000000, 0.6737747, 0.9025000, 2.0000000, 0.0100000, 224.4335084, 77.8820243, 185.8951631, 5.1849776, 6.0547576, -9.2500000, 6.4429828, -0.0366189, -5.8330998, 28.0269058, 32.7284193, -50.0000000, 34.8269339, -0.1979400, -31.5302691
-159.4394619, -134.3454316, 164.0000000, -129.3034613, 89.9860412, 179.3693946, 0.0000000, 0.7102878, 1.0000000, 2.0000000, 0.0100000, 224.8255424, 78.2703286, 186.3424189, 5.4652466, 6.3820418, -9.7500000, 6.7912521, -0.0385983, -6.1484025, 28.0269058, 32.7284193, -50.0000000, 34.8269339, -0.1979400, -31.5302691
-159.3820067, -134.2783384, 163.8975000, -129.2320661, 89.9856354, 179.3047576, 0.0000000, 0.7468154, 1.1025000, 2.0000000, 0.0100000, 225.2367911, 78.6793118, 186.8128875, 5.7455157, 6.7093260, -10.2500000, 7.1395214, -0.0405777, -6.4637052, 28.0269058, 32.7284193, -50.0000000, 34.8269339, -0.1979400, -31.5302691
-159.3217489, -134.2079723, 163.7900000, -129.1571882, 89.9852099, 179.2369675, 0.0000000, 0.7833584, 1.2100000, 2.0000000, 0.0100000, 225.6671192, 79.1090865, 187.3066098, 6.0257848, 7.0366101, -10.7500000, 7.4877908, -0.0425571, -6.7790078, 28.0269058, 32.7284193, -50.0000000, 34.8269339, -0.1979400, -31.5302691
-159.2586883, -134.1343333, 163.6775000, -129.0788276, 89.9847645, 179.1660244, 0.0000000, 0.8199172, 1.3225000, 2.0000000, 0.0100000, 226.1163848, 79.5597706, 187.8236286, 6.3060538, 7.3638943, -11.2500000, 7.8360601, -0.0445365, -7.0943105, 28.0269058, 32.7284193, -50.0000000, 34.8269339, -0.1979400, -31.5302691
-159.1928251, -134.0574215, 163.5600000, -128.9969843, 89.9842993, 179.0919283, 0.0000000, 0.8564928, 1.4400000, 2.0000000, 0.0100000, 226.5844389, 80.0314868, 188.3639888, 6.5863229, 7.6911785, -11.7500000, 8.1843295, -0.0465159, -7.4096132, 28.0269058, 32.7284193, -50.0000000, 34.8269339, -0.1979400, -31.5302691
-159.1241592, -133.9772369, 163.4375000, -128.9116583, 89.9838144, 179.0146791, 0.0000000, 0.8930857, 1.5625000, 2.0000000, 0.0100000, 227.0711252, 80.5243628, 188.9277367, 6.8665919, 8.0184627, -12.2500000, 8.5325988, -0.0484953, -7.7249159, 28.0269058, 32.7284193, -50.0000000, 34.8269339, -0.1979400, -31.5302691
-159.0526906, -133.8937794, 163.3100000, -128.8228496, 89.9833096, 178.9342769, 0.0000000, 0.9296966, 1.6900000, 2.0000000, 0.0100000, 227.5762806, 81.0385308, 189.5149208, 7.1468610, 8.3457469, -12.7500000, 8.8808681, -0.0504747, -8.0402186, 28.0269058, 32.7284193, -50.0000000, 34.8269339, -0.1979400, -31.5302691
-158.9784193, -133.8070491, 163.1775000, -128.7305583, 89.9827851, 178.8507217, 0.0000000, 0.9663264, 1.8225000, 2.0000000, 0.0100000, 228.0997344, 81.5741280, 190.1255912, 7.4271300, 8.6730311, -13.2500000, 9.2291375, -0.0524541, -8.3555213, 28.0269058, 32.7284193, -50.0000000, 34.8269339, -0.1979400, -31.5302691
-158.9013453, -133.7170460, 163.0400000, -128.6347842, 89.9822408, 178.7640135, 0.0000000, 1.0029755, 1.9600000, 2.0000000, 0.0100000, 228.6413090, 82.1312959, 190.7598000, 7.7073991, 9.0003153, -13.7500000, 9.5774068, -0.0544335, -8.6708240, 28.0269058, 32.7284193, -50.0000000, 34.8269339, -0.1979400, -31.5302691
-158.8214686, -133.6237700, 162.8975000, -128.5355274, 89.9816766, 178.6741522, 0.0000000, 1.0396447, 2.1025000, 2.0000000, 0.0100000, 229.2008193, 82.7101806, 191.4176007, 7.9876682, 9.3275995, -14.2500000, 9.9256761, -0.0564129, -8.9861267, 28.0269058, 32.7284193, -50.0000000, 34.8269339, -0.1979400, -31.5302691
-158.7387892, -133.5272211, 162.7500000, -128.4327880, 89.9810927, 178.5811379, 0.0000000, 1.0763347, 2.2500000, 2.0000000, 0.0100000, 229.7780728, 83.3109329, 192.0990487, 8.2679372, 9.6548837, -14.7500000, 10.2739455, -0.0583923, -9.3014294, 28.0269058, 32.7284193, -50.0000000, 34.8269339, -0.1979400, -31.5302691
-158.6533072, -133.4273995, 162.5975000, -128.3265658, 89.9804890, 178.4849706, 0.0000000, 1.1130460, 2.4025000, 2.0000000, 0.0100000, 230.3728696, 83.9337073, 192.8042013, 8.5482063, 9.9821679, -15.2500000, 10.6222148, -0.0603717, -9.6167321, 28.0269058, 32.7284193, -50.0000000, 34.8269339, -0.1979400, -31.5302691
-158.5650224, -133.3243049, 162.4400000, -128.2168610, 89.9798655, 178.3856502, 0.0000000, 1.1497795, 2.5600000, 2.0000000, 0.0100000, 230.9850022, 84.5786632, 193.5331173, 8.8284753, 10.3094521, -15.7500000, 10.9704842, -0.0623511, -9.9320348, 28.0269058, 32.7284193, -50.0000000, 34.8269339, -0.1979400, -31.5302691
-158.4739350, -133.2179376, 162.2775000, -128.1036735, 89.9792222, 178.2831768, 0.0000000, 1.1865356, 2.7225000, 2.0000000, 0.0100000, 231.6142557, 85.2459635, 194.2858570, 9.1087444, 10.6367363, -16.2500000, 11.3187535, -0.0643305, -10.2473374, 28.0269058, 32.7284193, -50.0000000, 34.8269339, -0.1979400, -31.5302691
-158.3800448, -133.1082974, 162.1100000, -127.9870032, 89.9785591, 178.1775504, 0.0000000, 1.2233151, 2.8900000, 2.0000000, 0.0100000, 232.2604073, 85.9357755, 195.0624826, 9.3890135, 10.9640205, -16.7500000, 11.6670228, -0.0663099, -10.5626401, 28.0269058, 32.7284193, -50.0000000, 34.8269339, -0.1979400, -31.5302691
-158.2833520, -132.9953843, 161.9375000, -127.8668503, 89.9778762, 178.0687710, 0.0000000, 1.2601185, 3.0625000, 2.0000000, 0.0100000, 232.9232265, 86.6482702, 195.8630578, 9.6692825, 11.2913047, -17.2500000, 12.0152922, -0.0682893, -10.8779428, 28.0269058, 32.7284193, -50.0000000, 34.8269339, -0.1979400, -31.5302691
-158.1838565, -132.8791984, 161.7600000, -127.7432147, 89.9771735, 177.9568386, 0.0000000, 1.2969465, 3.2400000, 2.0000000, 0.0100000, 233.6024751, 87.3836223, 196.6876479, 9.9495516, 11.6185888, -17.7500000, 12.3635615, -0.0702687, -11.1932455, 28.0269058, 32.7284193, -50.0000000, 34.8269339, -0.1979400, -31.5302691
-158.0815583, -132.7597397, 161.5775000, -127.6160964, 89.9764510, 177.8417531, 0.0000000, 1.3337997, 3.4225000, 2.0000000, 0.0100000, 234.2979071, 88.1420102, 197.5363197, 10.2298206, 11.9458730, -18.2500000, 12.7118309, -0.0722481, -11.5085482, 28.0269058, 32.7284193, -50.0000000, 34.8269339, -0.1979400, -31.5302691
-157.9764574, -132.6370081, 161.3900000, -127.4854954, 89.9757087, 177.7235146, 0.0000000, 1.3706786, 3.6100000, 2.0000000, 0.0100000, 235.0092681, 88.9236158, 198.4091414, 10.5100897, 12.2731572, -18.7500000, 13.0601002, -0.0742275, -11.8238509, 28.0269058, 32.7284193, -50.0000000, 34.8269339, -0.1979400, -31.5302691
-157.8685538, -132.5110037, 161.1975000, -127.3514117, 89.9749467, 177.6021230, 0.0000000, 1.4075838, 3.8025000, 2.0000000, 0.0100000, 235.7362962, 89.7286244, 199.3061830, 10.7903587, 12.6004414, -19.2500000, 13.4083695, -0.0762069, -12.1391536, 28.0269058, 32.7284193, -50.0000000, 34.8269339, -0.1979400, -31.5302691
-157.7578475, -132.3817265, 161.0000000, -127.2138453, 89.9741648, 177.4775785, 0.0000000, 1.4445160, 4.0000000, 2.0000000, 0.0100000, 236.4787210, 90.5572245, 200.2275156, 11.0706278, 12.9277256, -19.7500000, 13.7566389, -0.0781863, -12.4544563, 28.0269058, 32.7284193, -50.0000000, 34.8269339, -0.1979400, -31.5302691
-157.6443386, -132.2491764, 160.7975000, -127.0727962, 89.9733631, 177.3498809, 0.0000000, 1.4814756, 4.2025000, 2.0000000, 0.0100000, 237.2362640, 91.4096077, 201.1732119, 11.3508969, 13.2550098, -20.2500000, 14.1049082, -0.0801657, -12.7697590, 28.0269058, 32.7284193, -50.0000000, 34.8269339, -0.1979400, -31.5302691
-157.5280269, -132.1133534, 160.5900000, -126.9282644, 89.9725417, 177.2190303, 0.0000000, 1.5184633, 4.4100000, 2.0000000, 0.0100000, 238.0086386, 92.2859684, 202.1433460, 11.6311659, 13.5822940, -20.7500000, 14.4531776, -0.0821451, -13.0850617, 28.0269058, 32.7284193, -50.0000000, 34.8269339, -0.1979400, -31.5302691
-157.4089126, -131.9742576, 160.3775000, -126.7802500, 89.9717004, 177.0850266, 0.0000000, 1.5554795, 4.6225000, 2.0000000, 0.0100000, 238.7955495, 93.1865041, 203.1379933, 11.9114350, 13.9095782, -21.2500000, 14.8014469, -0.0841245, -13.4003643, 28.0269058, 32.7284193, -50.0000000, 34.8269339, -0.1979400, -31.5302691
-157.2869955, -131.8318890, 160.1600000, -126.6287528, 89.9708394, 176.9478700, 0.0000000, 1.5925247, 4.8400000, 2.0000000, 0.0100000, 239.5966932, 94.1114146, 204.1572304, 12.1917040, 14.2368624, -21.7500000, 15.1497162, -0.0861039, -13.7156670, 28.0269058, 32.7284193, -50.0000000, 34.8269339, -0.1979400, -31.5302691
-157.1622758, -131.6862475, 159.9375000, -126.4737729, 89.9699586, 176.8075603, 0.0000000, 1.6295995, 5.0625000, 2.0000000, 0.0100000, 240.4117576, 95.0609024, 205.2011353, 12.4719731, 14.5641466, -22.2500000, 15.4979856, -0.0880833, -14.0309697, 28.0269058, 32.7284193, -50.0000000, 34.8269339, -0.1979400, -31.5302691
-157.0347534, -131.5373332, 159.7100000, -126.3153104, 89.9690579, 176.6640975, 0.0000000, 1.6667044, 5.2900000, 2.0000000, 0.0100000, 241.2404221, 96.0351723, 206.2697872, 12.7522422, 14.8914308, -22.7500000, 15.8462549, -0.0900627, -14.3462724, 28.0269058, 32.7284193, -50.0000000, 34.8269339, -0.1979400, -31.5302691
-156.9044283, -131.3851461, 159.4775000, -126.1533652, 89.9681375, 176.5174818, 0.0000000, 1.7038398, 5.5225000, 2.0000000, 0.0100000, 242.0823572, 97.0344311, 207.3632664, 13.0325112, 15.2187150, -23.2500000, 16.1945242, -0.0920421, -14.6615751, 28.0269058, 32.7284193, -50.0000000, 34.8269339, -0.1979400, -31.5302691
-156.7713004, -131.2296861, 159.2400000, -125.9879372, 89.9671973, 176.3677130, 0.0000000, 1.7410061, 5.7600000, 2.0000000, 0.0100000, 242.9372249, 98.0588879, 208.4816546, 13.3127803, 15.5459992, -23.7500000, 16.5427936, -0.0940215, -14.9768778, 28.0269058, 32.7284193, -50.0000000, 34.8269339, -0.1979400, -31.5302691
-156.6353700, -131.0709533, 158.9975000, -125.8190266, 89.9662373, 176.2147912, 0.0000000, 1.7782040, 6.0025000, 2.0000000, 0.0100000, 243.8046780, 99.1087531, 209.6250344, 13.5930493, 15.8732834, -24.2500000, 16.8910629, -0.0960009, -15.2921805, 28.0269058, 32.7284193, -50.0000000, 34.8269339, -0.1979400, -31.5302691
-156.4966368, -130.9089476, 158.7500000, -125.6466333, 89.9652575, 176.0587164, 0.0000000, 1.8154336, 6.2500000, 2.0000000, 0.0100000, 244.6843607, 100.1842393, 210.7934894, 13.8733184, 16.2005675, -24.7500000, 17.2393323, -0.0979803, -15.6074832, 28.0269058, 32.7284193, -50.0000000, 34.8269339, -0.1979400, -31.5302691
-156.3551009, -130.7436691, 158.4975000, -125.4707573, 89.9642579, 175.8994885, 0.0000000, 1.8526955, 6.5025000, 2.0000000, 0.0100000, 245.5759080, 101.2855600, 211.9871044, 14.1535874, 16.5278517, -25.2500000, 17.5876016, -0.0999597, -15.9227859, 28.0269058, 32.7284193, -50.0000000, 34.8269339, -0.1979400, -31.5302691
-156.2107623, -130.5751177, 158.2400000, -125.2913985, 89.9632385, 175.7371076, 0.0000000, 1.8899901, 6.7600000, 2.0000000, 0.0100000, 246.4789459, 102.4129304, 213.2059651, 14.4338565, 16.8551359, -25.7500000, 17.9358709, -0.1019391, -16.2380886, 28.0269058, 32.7284193, -50.0000000, 34.8269339, -0.1979400, -31.5302691
-156.0636211, -130.4032935, 157.9775000, -125.1085571, 89.9621993, 175.5715737, 0.0000000, 1.9273177, 7.0225000, 2.0000000, 0.0100000, 247.3930911, 103.5665663, 214.4501580, 14.7141256, 17.1824201, -26.2500000, 18.2841403, -0.1039185, -16.5533913, 28.0269058, 32.7284193, -50.0000000, 34.8269339, -0.1979400, -31.5302691
-155.9136771, -130.2281965, 157.7100000, -124.9222330, 89.9611403, 175.4028868, 0.0000000, 1.9646787, 7.2900000, 2.0000000, 0.0100000, 248.3179511, 104.7466848, 215.7197708, 14.9943946, 17.5097043, -26.7500000, 18.6324096, -0.1058979, -16.8686939, 28.0269058, 32.7284193, -50.0000000, 34.8269339, -0.1979400, -31.5302691
-155.7609305, -130.0498266, 157.4375000, -124.7324263, 89.9600616, 175.2310468, 0.0000000, 2.0020734, 7.5625000, 2.0000000, 0.0100000, 249.2531241, 105.9535033, 217.0148918, 15.2746637, 17.8369885, -27.2500000, 18.9806790, -0.1078773, -17.1839966, 28.0269058, 32.7284193, -50.0000000, 34.8269339, -0.1979400, -31.5302691
-155.6053812, -129.8681839, 157.1600000, -124.5391368, 89.9589630, 175.0560538, 0.0000000, 2.0395020, 7.8400000, 2.0000000, 0.0100000, 250.1981988, 107.1872397, 218.3356101, 15.5549327, 18.1642727, -27.7500000, 19.3289483, -0.1098567, -17.4992993, 28.0269058, 32.7284193, -50.0000000, 34.8269339, -0.1979400, -31.5302691
-155.4470291, -129.6832683, 156.8775000, -124.3423646, 89.9578446, 174.8779078, 0.0000000, 2.0769650, 8.1225000, 2.0000000, 0.0100000, 251.1527546, 108.4481122, 219.6820155, 15.8352018, 18.4915569, -28.2500000, 19.6772176, -0.1118361, -17.8146020, 28.0269058, 32.7284193, -50.0000000, 34.8269339, -0.1979400, -31.5302691
-155.2858744, -129.4950799, 156.5900000, -124.1421097, 89.9567065, 174.6966087, 0.0000000, 2.1144626, 8.4100000, 2.0000000, 0.0100000, 252.1163611, 109.7363390, 221.0541986, 16.1154709, 18.8188411, -28.7500000, 20.0254870, -0.1138155, -18.1299047, 28.0269058, 32.7284193, -50.0000000, 34.8269339, -0.1979400, -31.5302691
-155.1219170, -129.3036186, 156.2975000, -123.9383722, 89.9555485, 174.5121567, 0.0000000, 2.1519950, 8.7025000, 2.0000000, 0.0100000, 253.0885783, 111.0521379, 222.4522506, 16.3957399, 19.1461253, -29.2500000, 20.3737563, -0.1157949, -18.4452074, 28.0269058, 32.7284193, -50.0000000, 34.8269339, -0.1979400, -31.5302691
-154.9551570, -129.1088845, 156.0000000, -123.7311519, 89.9543708, 174.3245516, 0.0000000, 2.1895624, 9.0000000, 2.0000000, 0.0100000, 254.0689567, 112.3957264, 223.8762631, 16.6760090, 19.4734095, -29.7500000, 20.7220256, -0.1177743, -18.7605101, 28.0269058, 32.7284193, -50.0000000, 34.8269339, -0.1979400, -31.5302691
-154.7855942, -128.9108776, 155.6975000, -123.5204490, 89.9531733, 174.1337934, 0.0000000, 2.2271650, 9.3025000, 2.0000000, 0.0100000, 255.0570366, 113.7673212, 225.3263286, 16.9562780, 19.8006937, -30.2500000, 21.0702950, -0.1197537, -19.0758128, 28.0269058, 32.7284193, -50.0000000, 34.8269339, -0.1979400, -31.5302691
-154.6132287, -128.7095978, 155.3900000, -123.3062633, 89.9519559, 173.9398823, 0.0000000, 2.2648031, 9.6100000, 2.0000000, 0.0100000, 256.0523490, 115.1671381, 226.8025396, 17.2365471, 20.1279779, -30.7500000, 21.4185643, -0.1217331, -19.3911155, 28.0269058, 32.7284193, -50.0000000, 34.8269339, -0.1979400, -31.5302691
-154.4380605, -128.5050452, 155.0775000, -123.0885950, 89.9507188, 173.7428181, 0.0000000, 2.3024767, 9.9225000, 2.0000000, 0.0100000, 257.0544145, 116.5953917, 228.3049893, 17.5168161, 20.4552621, -31.2500000, 21.7668337, -0.1237125, -19.7064182, 28.0269058, 32.7284193, -50.0000000, 34.8269339, -0.1979400, -31.5302691
-154.2600897, -128.2972197, 154.7600000, -122.8674439, 89.9494619, 173.5426009, 0.0000000, 2.3401859, 10.2400000, 2.0000000, 0.0100000, 258.0627439, 118.0522952, 229.8337711, 17.7970852, 20.7825462, -31.7500000, 22.1151030, -0.1256919, -20.0217209, 28.0269058, 32.7284193, -50.0000000, 34.8269339, -0.1979400, -31.5302691
-154.0793161, -128.0861214, 154.4375000, -122.6428102, 89.9481852, 173.3392307, 0.0000000, 2.3779309, 10.5625000, 2.0000000, 0.0100000, 259.0768380, 119.5380600, 231.3889789, 18.0773543, 21.1098304, -32.2500000, 22.4633723, -0.1276713, -20.3370235, 28.0269058, 32.7284193, -50.0000000, 34.8269339, -0.1979400, -31.5302691
-153.8957399, -127.8717503, 154.1100000, -122.4146938, 89.9468887, 173.1327074, 0.0000000, 2.4157117, 10.8900000, 2.0000000, 0.0100000, 260.0961875, 121.0528956, 232.9707066, 18.3576233, 21.4371146, -32.7500000, 22.8116417, -0.1296507, -20.6523262, 28.0269058, 32.7284193, -50.0000000, 34.8269339, -0.1979400, -31.5302691
-153.7093610, -127.6541063, 153.7775000, -122.1830947, 89.9455724, 172.9230311, 0.0000000, 2.4535283, 11.2225000, 2.0000000, 0.0100000, 261.1202728, 122.5970094, 234.5790483, 18.6378924, 21.7643988, -33.2500000, 23.1599110, -0.1316301, -20.9676289, 28.0269058, 32.7284193, -50.0000000, 34.8269339, -0.1979400, -31.5302691
-153.5201794, -127.4331895, 153.4400000, -121.9480129, 89.9442363, 172.7102018, 0.0000000, 2.4913808, 11.5600000, 2.0000000, 0.0100000, 262.1485642, 124.1706060, 236.2140983, 18.9181614, 22.0916830, -33.7500000, 23.5081804, -0.1336095, -21.2829316, 28.0269058, 32.7284193, -50.0000000, 34.8269339, -0.1979400, -31.5302691
-153.3281951, -127.2089998, 153.0975000, -121.7094484, 89.9428804, 172.4942195, 0.0000000, 2.5292690, 11.9025000, 2.0000000, 0.0100000, 263.1805218, 125.7738876, 237.8759508, 19.1984305, 22.4189672, -34.2500000, 23.8564497, -0.1355889, -21.5982343, 28.0269058, 32.7284193, -50.0000000, 34.8269339, -0.1979400, -31.5302691
-153.1334081, -126.9815373, 152.7500000, -121.4674012, 89.9415047, 172.2750841, 0.0000000, 2.5671930, 12.2500000, 2.0000000, 0.0100000, 264.2155953, 127.4070529, 239.5647000, 19.4786996, 22.7462514, -34.7500000, 24.2047190, -0.1375683, -21.9135370, 28.0269058, 32.7284193, -50.0000000, 34.8269339, -0.1979400, -31.5302691
-152.9358184, -126.7508019, 152.3975000, -121.2218713, 89.9401092, 172.0527957, 0.0000000, 2.6051527, 12.6025000, 2.0000000, 0.0100000, 265.2532240, 129.0702976, 241.2804401, 19.7589686, 23.0735356, -35.2500000, 24.5529884, -0.1395477, -22.2288397, 28.0269058, 32.7284193, -50.0000000, 34.8269339, -0.1979400, -31.5302691
-152.7354260, -126.5167937, 152.0400000, -120.9728587, 89.9386939, 171.8273543, 0.0000000, 2.6431478, 12.9600000, 2.0000000, 0.0100000, 266.2928369, 130.7638137, 243.0232650, 20.0392377, 23.4008198, -35.7500000, 24.9012577, -0.1415271, -22.5441424, 28.0269058, 32.7284193, -50.0000000, 34.8269339, -0.1979400, -31.5302691
-152.5322309, -126.2795127, 151.6775000, -120.7203635, 89.9372589, 171.5987598, 0.0000000, 2.6811783, 13.3225000, 2.0000000, 0.0100000, 267.3338527, 132.4877892, 244.7932684, 20.3195067, 23.7281040, -36.2500000, 25.2495270, -0.1435065, -22.8594451, 28.0269058, 32.7284193, -50.0000000, 34.8269339, -0.1979400, -31.5302691
-152.3262332, -126.0389588, 151.3100000, -120.4643855, 89.9358040, 171.3670123, 0.0000000, 2.7192440, 13.6900000, 2.0000000, 0.0100000, 268.3756794, 134.2424078, 246.5905436, 20.5997758, 24.0553882, -36.7500000, 25.5977964, -0.1454859, -23.1747478, 28.0269058, 32.7284193, -50.0000000, 34.8269339, -0.1979400, -31.5302691
-152.1174327, -125.7951321, 150.9375000, -120.2049249, 89.9343294, 171.1321118, 0.0000000, 2.7573445, 14.0625000, 2.0000000, 0.0100000, 269.4177146, 136.0278489, 248.4151838, 20.8800448, 24.3826724, -37.2500000, 25.9460657, -0.1474653, -23.4900504, 28.0269058, 32.7284193, -50.0000000, 34.8269339, -0.1979400, -31.5302691
-151.9058296, -125.5480325, 150.5600000, -119.9419815, 89.9328349, 170.8940583, 0.0000000, 2.7954797, 14.4400000, 2.0000000, 0.0100000, 270.4593455, 137.8442866, 250.2672814, 21.1603139, 24.7099566, -37.7500000, 26.2943351, -0.1494447, -23.8053531, 28.0269058, 32.7284193, -50.0000000, 34.8269339, -0.1979400, -31.5302691
-151.6914238, -125.2976601, 150.1775000, -119.6755555, 89.9313207, 170.6528517, 0.0000000, 2.8336492, 14.8225000, 2.0000000, 0.0100000, 271.4999488, 139.6918903, 252.1469284, 21.4405830, 25.0372408, -38.2500000, 26.6426044, -0.1514241, -24.1206558, 28.0269058, 32.7284193, -50.0000000, 34.8269339, -0.1979400, -31.5302691
-151.4742152, -125.0440149, 149.7900000, -119.4056467, 89.9297866, 170.4084922, 0.0000000, 2.8718526, 15.2100000, 2.0000000, 0.0100000, 272.5388906, 141.5708237, 254.0542161, 21.7208520, 25.3645249, -38.7500000, 26.9908737, -0.1534035, -24.4359585, 28.0269058, 32.7284193, -50.0000000, 34.8269339, -0.1979400, -31.5302691
-151.2542040, -124.7870968, 149.3975000, -119.1322553, 89.9282328, 170.1609795, 0.0000000, 2.9100896, 15.6025000, 2.0000000, 0.0100000, 273.5755265, 143.4812445, 255.9892354, 22.0011211, 25.6918091, -39.2500000, 27.3391431, -0.1553829, -24.7512612, 28.0269058, 32.7284193, -50.0000000, 34.8269339, -0.1979400, -31.5302691
-151.0313901, -124.5269058, 149.0000000, -118.8553812, 89.9266592, 169.9103139, 0.0000000, 2.9483596, 16.0000000, 2.0000000, 0.0100000, 274.6092015, 145.4233045, 257.9520761, 22.2813901, 26.0190933, -39.7500000, 27.6874124, -0.1573623, -25.0665639, 28.0269058, 32.7284193, -50.0000000, 34.8269339, -0.1979400, -31.5302691
-150.8057735, -124.2634421, 148.5975000, -118.5750243, 89.9250658, 169.6564952, 0.0000000, 2.9866624, 16.4025000, 2.0000000, 0.0100000, 275.6392503, 147.3971488, 259.9428272, 22.5616592, 26.3463775, -40.2500000, 28.0356818, -0.1593417, -25.3818666, 28.0269058, 32.7284193, -50.0000000, 34.8269339, -0.1979400, -31.5302691
-150.5773543, -123.9967054, 148.1900000, -118.2911848, 89.9234526, 169.3995235, 0.0000000, 3.0249972, 16.8100000, 2.0000000, 0.0100000, 276.6649969, 149.4029159, 261.9615769, 22.8419283, 26.6736617, -40.7500000, 28.3839511, -0.1613211, -25.6971693, 28.0269058, 32.7284193, -50.0000000, 34.8269339, -0.1979400, -31.5302691
-150.3461323, -123.7266960, 147.7775000, -118.0038626, 89.9218196, 169.1393988, 0.0000000, 3.0633635, 17.2225000, 2.0000000, 0.0100000, 277.6857548, 151.4407368, 264.0084123, 23.1221973, 27.0009459, -41.2500000, 28.7322204, -0.1633005, -26.0124720, 28.0269058, 32.7284193, -50.0000000, 34.8269339, -0.1979400, -31.5302691
-150.1121076, -123.4534137, 147.3600000, -117.7130577, 89.9201668, 168.8761211, 0.0000000, 3.1017607, 17.6400000, 2.0000000, 0.0100000, 278.7008272, 153.5107352, 266.0834193, 23.4024664, 27.3282301, -41.7500000, 29.0804898, -0.1652799, -26.3277747, 28.0269058, 32.7284193, -50.0000000, 34.8269339, -0.1979400, -31.5302691
-149.8752803, -123.1768585, 146.9375000, -117.4187701, 89.9184942, 168.6096903, 0.0000000, 3.1401882, 18.0625000, 2.0000000, 0.0100000, 279.7095068, 155.6130269, 268.1866828, 23.6827354, 27.6555143, -42.2500000, 29.4287591, -0.1672593, -26.6430774, 28.0269058, 32.7284193, -50.0000000, 34.8269339, -0.1979400, -31.5302691
-149.6356502, -122.8970305, 146.5100000, -117.1209999, 89.9168018, 168.3401065, 0.0000000, 3.1786452, 18.4900000, 2.0000000, 0.0100000, 280.7110760, 157.7477192, 270.3182863, 23.9630045, 27.9827985, -42.7500000, 29.7770284, -0.1692387, -26.9583800, 28.0269058, 32.7284193, -50.0000000, 34.8269339, -0.1979400, -31.5302691
-149.3932175, -122.6139297, 146.0775000, -116.8197469, 89.9150896, 168.0673697, 0.0000000, 3.2171310, 18.9225000, 2.0000000, 0.0100000, 281.7048066, 159.9149110, 272.4783119, 24.2432735, 28.3100827, -43.2500000, 30.1252978, -0.1712181, -27.2736827, 28.0269058, 32.7284193, -50.0000000, 34.8269339, -0.1979400, -31.5302691
-149.1479821, -122.3275561, 145.6400000, -116.5150112, 89.9133576, 167.7914798, 0.0000000, 3.2556446, 19.3600000, 2.0000000, 0.0100000, 282.6899604, 162.1146922, 274.6668404, 24.5235426, 28.6373669, -43.7500000, 30.4735671, -0.1731975, -27.5889854, 28.0269058, 32.7284193, -50.0000000, 34.8269339, -0.1979400, -31.5302691
-148.8999439, -122.0379095, 145.1975000, -116.2067928, 89.9116059, 167.5124369, 0.0000000, 3.2941854, 19.8025000, 2.0000000, 0.0100000, 283.6657890, 164.3471432, 276.8839507, 24.8038117, 28.9646511, -44.2500000, 30.8218365, -0.1751769, -27.9042881, 28.0269058, 32.7284193, -50.0000000, 34.8269339, -0.1979400, -31.5302691
-148.6491031, -121.7449902, 144.7500000, -115.8950918, 89.9098343, 167.2302410, 0.0000000, 3.3327523, 20.2500000, 2.0000000, 0.0100000, 284.6315335, 166.6123348, 279.1297205, 25.0840807, 29.2919353, -44.7500000, 31.1701058, -0.1771563, -28.2195908, 28.0269058, 32.7284193, -50.0000000, 34.8269339, -0.1979400, -31.5302691
-148.3954596, -121.4487980, 144.2975000, -115.5799080, 89.9080429, 166.9448921, 0.0000000, 3.3713443, 20.7025000, 2.0000000, 0.0100000, 285.5864254, 168.9103276, 281.4042255, 25.3643498, 29.6192195, -45.2500000, 31.5183751, -0.1791357, -28.5348935, 28.0269058, 32.7284193, -50.0000000, 34.8269339, -0.1979400, -31.5302691
-148.1390135, -121.1493330, 143.8400000, -115.2612416, 89.9062318, 166.6563901, 0.0000000, 3.4099604, 21.1600000, 2.0000000, 0.0100000, 286.5296859, 171.2411717, 283.7075396, 25.6446188, 29.9465036, -45.7500000, 31.8666445, -0.1811151, -28.8501962, 28.0269058, 32.7284193, -50.0000000, 34.8269339, -0.1979400, -31.5302691
-147.8797646, -120.8465951, 143.3775000, -114.9390925, 89.9044008, 166.3647351, 0.0000000, 3.4485996, 21.6225000, 2.0000000, 0.0100000, 287.4605265, 173.6049064, 286.0397347, 25.9248879, 30.2737878, -46.2500000, 32.2149138, -0.1830945, -29.1654989, 28.0269058, 32.7284193, -50.0000000, 34.8269339, -0.1979400, -31.5302691
-147.6177130, -120.5405844, 142.9100000, -114.6134606, 89.9025501, 166.0699271, 0.0000000, 3.4872607, 22.0900000, 2.0000000, 0.0100000, 288.3781487, 176.0015595, 288.4008807, 26.2051570, 30.6010720, -46.7500000, 32.5631832, -0.1850739, -29.4808016, 28.0269058, 32.7284193, -50.0000000, 34.8269339, -0.1979400, -31.5302691
-147.3528587, -120.2313008, 142.4375000, -114.2843461, 89.9006796, 165.7719661, 0.0000000, 3.5259425, 22.5625000, 2.0000000, 0.0100000, 289.2817446, 178.4311472, 290.7910455, 26.4854260, 30.9283562, -47.2500000, 32.9114525, -0.1870533, -29.7961043, 28.0269058, 32.7284193, -50.0000000, 34.8269339, -0.1979400, -31.5302691
-147.0852018, -119.9187444, 141.9600000, -113.9517489, 89.8987892, 165.4708520, 0.0000000, 3.5646436, 23.0400000, 2.0000000, 0.0100000, 290.1704967, 180.8936739, 293.2102946, 26.7656951, 31.2556404, -47.7500000, 33.2597218, -0.1890327, -30.1114070, 28.0269058, 32.7284193, -50.0000000, 34.8269339, -0.1979400, -31.5302691
-146.8147422, -119.6029151, 141.4775000, -113.6156690, 89.8968791, 165.1665849, 0.0000000, 3.6033628, 23.5225000, 2.0000000, 0.0100000, 291.0435780, 183.3891311, 295.6586913, 27.0459641, 31.5829246, -48.2500000, 33.6079912, -0.1910121, -30.4267096, 28.0269058, 32.7284193, -50.0000000, 34.8269339, -0.1979400, -31.5302691
-146.5414798, -119.2838131, 140.9900000, -113.2761064, 89.8949492, 164.8591648, 0.0000000, 3.6420987, 24.0100000, 2.0000000, 0.0100000, 291.9001523, 185.9174977, 298.1362962, 27.3262332, 31.9102088, -48.7500000, 33.9562605, -0.1929915, -30.7420123, 28.0269058, 32.7284193, -50.0000000, 34.8269339, -0.1979400, -31.5302691
-146.2654148, -118.9614381, 140.4975000, -112.9330611, 89.8929995, 164.5485916, 0.0000000, 3.6808499, 24.5025000, 2.0000000, 0.0100000, 292.7393743, 188.4787391, 300.6431676, 27.6065022, 32.2374930, -49.2500000, 34.3045298, -0.1949709, -31.0573150, 28.0269058, 32.7284193, -50.0000000, 34.8269339, -0.1979400, -31.5302691
-145.9865471, -118.6357904, 140.0000000, -112.5865331, 89.8910300, 164.2348655, 0.0000000, 3.7196147, 25.0000000, 2.0000000, 0.0100000, 293.5603898, 191.0728073, 303.1793611, 27.8867713, 32.5647772, -49.7500000, 34.6527992, -0.1969503, -31.3726177, 28.0269058, 32.7284193, -50.0000000, 34.8269339, -0.1979400, -31.5302691
-145.7062780, -118.3085062, 139.5000000, -112.2382637, 89.8890506, 163.9195628, 0.0000000, 3.7396898, 25.5000000, 2.0000000, 0.0100000, 294.3584142, 193.6865548, 305.7321558, 28.0269058, 32.7284193, -50.0000000, 34.8269339, -0.1979400, -31.5302691, 14.0134529, 16.3642096, -25.0000000, 17.4134669, -0.0989700, -15.7651345
-145.4260090, -117.9812220, 139.0000000, -111.8899944, 89.8870712, 163.6042601, 0.0000000, 3.7410465, 26.0000000, 2.0000000, 0.0100000, 295.1292034, 196.3066938, 308.2887521, 28.0269058, 32.7284193, -50.0000000, 34.8269339, -0.1979400, -31.5302691, 0.0000000, 0.0000000, 0.0000000, 0.0000000, 0.0000000, 0.0000000
-145.1457399, -117.6539378, 138.5000000, -111.5417251, 89.8850918, 163.2889574, 0.0000000, 3.7423726, 26.5000000, 2.0000000, 0.0100000, 295.8727097, 198.9329546, 310.8490851, 28.0269058, 32.7284193, -50.0000000, 34.8269339, -0.1979400, -31.5302691, 0.0000000, 0.0000000, 0.0000000, 0.0000000, 0.0000000, 0.0000000
-144.8654709, -117.3266536, 138.0000000, -111.1934557, 89.8831124, 162.9736547, 0.0000000, 3.7436677, 27.0000000, 2.0000000, 0.0100000, 296.5888881, 201.5650670, 313.4130898, 28.0269058, 32.7284193, -50.0000000, 34.8269339, -0.1979400, -31.5302691, -0.0000000, -0.0000000, 0.0000000, -0.0000000, -0.0000000, -0.0000000
-144.5852018, -116.9993694, 137.5000000, -110.8451864, 89.8811330, 162.6583520, 0.0000000, 3.7449315, 27.5000000, 2.0000000, 0.0100000, 297.2776963, 204.2027608, 315.9807010, 28.0269058, 32.7284193, -50.0000000, 34.8269339, -0.1979400, -31.5302691, 0.0000000, 0.0000000, 0.0000000, 0.0000000, 0.0000000, 0.0000000
-144.3049327, -116.6720852, 137.0000000, -110.4969170, 89.8791536, 162.3430493, 0.0000000, 3.7461640, 28.0000000, 2.0000000, 0.0100000, 297.9390948, 206.8457652, 318.5518533, 28.0269058, 32.7284193, -50.0000000, 34.8269339, -0.1979400, -31.5302691, 0.0000000, -0.0000000, 0.0000000, -0.0000000, 0.0000000, 0.0000000
-144.0246637, -116.3448010, 136.5000000, -110.1486477, 89.8771742, 162.0277466, 0.0000000, 3.7473647, 28.5000000, 2.0000000, 0.0100000, 298.5730466, 209.4938094, 321.1264813, 28.0269058, 32.7284193, -50.0000000, 34.8269339, -0.1979400, -31.5302691, 0.0000000, 0.0000000, 0.0000000, 0.0000000, 0.0000000, -0.0000000
-143.7443946, -116.0175168, 136.0000000, -109.8003784, 89.8751948, 161.7124439, 0.0000000, 3.7485335, 29.0000000, 2.0000000, 0.0100000, 299.1795175, 212.1466224, 323.7045193, 28.0269058, 32.7284193, -50.0000000, 34.8269339, -0.1979400, -31.5302691, 0.0000000, 0.0000000, 0.0000000, 0.0000000, 0.0000000, 0.0000000
-143.4641256, -115.6902326, 135.5000000, -109.4521090, 89.8732154, 161.3971413, 0.0000000, 3.7496702, 29.5000000, 2.0000000, 0.0100000, 299.7584760, 214.8039330, 326.2859014, 28.0269058, 32.7284193, -50.0000000, 34.8269339, -0.1979400, -31.5302691, -0.0000000, -0.0000000, 0.0000000, 0.0000000, 0.0000000, 0.0000000
-143.1838565, -115.3629484, 135.0000000, -109.1038397, 89.8712360, 161.0818386, 0.0000000, 3.7507744, 30.0000000, 2.0000000, 0.0100000, 300.3098933, 217.4654699, 328.8705618, 28.0269058, 32.7284193, -50.0000000, 34.8269339, -0.1979400, -31.5302691, 0.0000000, 0.0000000, 0.0000000, -0.0000000, 0.0000000, 0.0000000
-142.9035874, -115.0356642, 134.5000000, -108.7555703, 89.8692566, 160.7665359, 0.0000000, 3.7518460, 30.5000000, 2.0000000, 0.0100000, 300.8337434, 220.1309615, 331.4584343, 28.0269058, 32.7284193, -50.0000000, 34.8269339, -0.1979400, -31.5302691, 0.0000000, 0.0000000, 0.0000000, 0.0000000, 0.0000000, -0.0000000
-142.6233184, -114.7083800, 134.0000000, -108.4073010, 89.8672772, 160.4512332, 0.0000000, 3.7528848, 31.0000000, 2.0000000, 0.0100000, 301.3300028, 222.8001364, 334.0494527, 28.0269058, 32.7284193, -50.0000000, 34.8269339, -0.1979400, -31.5302691, 0.0000000, 0.0000000, 0.0000000, -0.0000000, -0.0000000, 0.0000000
-142.3430493, -114.3810959, 133.5000000, -108.0590317, 89.8652978, 160.1359305, 0.0000000, 3.7538904, 31.5000000, 2.0000000, 0.0100000, 301.7986510, 225.4727229, 336.6435506, 28.0269058, 32.7284193, -50.0000000, 34.8269339, -0.1979400, -31.5302691, 0.0000000, 0.0000000, 0.0000000, 0.0000000, 0.0000000, 0.0000000
-142.0627803, -114.0538117, 133.0000000, -107.7107623, 89.8633184, 159.8206278, 0.0000000, 3.7548628, 32.0000000, 2.0000000, 0.0100000, 302.2396698, 228.1484494, 339.2406614, 28.0269058, 32.7284193, -50.0000000, 34.8269339, -0.1979400, -31.5302691, 0.0000000, -0.0000000, 0.0000000, 0.0000000, 0.0000000, 0.0000000
-141.7825112, -113.7265275, 132.5000000, -107.3624930, 89.8613390, 159.5053251, 0.0000000, 3.7558016, 32.5000000, 2.0000000, 0.0100000, 302.6530441, 230.8270443, 341.8407185, 28.0269058, 32.7284193, -50.0000000, 34.8269339, -0.1979400, -31.5302691, -0.0000000, 0.0000000, 0.0000000, 0.0000000, 0.0000000, -0.0000000
-141.5022422, -113.3992433, 132.0000000, -107.0142237, 89.8593596, 159.1900224, 0.0000000, 3.7567066, 33.0000000, 2.0000000, 0.0100000, 303.0387612, 233.5082358, 344.4436551, 28.0269058, 32.7284193, -50.0000000, 34.8269339, -0.1979400, -31.5302691, 0.0000000, -0.0000000, 0.0000000, -0.0000000, 0.0000000, 0.0000000
-141.2219731, -113.0719591, 131.5000000, -106.6659543, 89.8573802, 158.8747197, 0.0000000, 3.7575777, 33.5000000, 2.0000000, 0.0100000, 303.3968113, 236.1917525, 347.0494042, 28.0269058, 32.7284193, -50.0000000, 34.8269339, -0.1979400, -31.5302691, 0.0000000, 0.0000000, 0.0000000, 0.0000000, 0.0000000, 0.0000000
-140.9417040, -112.7446749, 131.0000000, -106.3176850, 89.8554008, 158.5594170, 0.0000000, 3.7584146, 34.0000000, 2.0000000, 0.0100000, 303.7271872, 238.8773228, 349.6578988, 28.0269058, 32.7284193, -50.0000000, 34.8269339, -0.1979400, -31.5302691, 0.0000000, -0.0000000, 0.0000000, 0.0000000, 0.0000000, -0.0000000
-140.6614350, -112.4173907, 130.5000000, -105.9694156, 89.8534214, 158.2441143, 0.0000000, 3.7592171, 34.5000000, 2.0000000, 0.0100000, 304.0298844, 241.5646753, 352.2690717, 28.0269058, 32.7284193, -50.0000000, 34.8269339, -0.1979400, -31.5302691, -0.0000000, 0.0000000, 0.0000000, -0.0000000, 0.0000000, 0.0000000
-140.3811659, -112.0901065, 130.0000000, -105.6211463, 89.8514420, 157.9288117, 0.0000000, 3.7599850, 35.0000000, 2.0000000, 0.0100000, 304.3049011, 244.2535388, 354.8828555, 28.0269058, 32.7284193, -50.0000000, 34.8269339, -0.1979400, -31.5302691, 0.0000000, 0.0000000, 0.0000000, 0.0000000, -0.0000000, 0.0000000
-140.1008969, -111.7628223, 129.5000000, -105.2728770, 89.8494626, 157.6135090, 0.0000000, 3.7607180, 35.5000000, 2.0000000, 0.0100000, 304.5522383, 246.9436422, 357.4991828, 28.0269058, 32.7284193, -50.0000000, 34.8269339, -0.1979400, -31.5302691, 0.0000000, 0.0000000, 0.0000000, 0.0000000, 0.0000000, -0.0000000
-139.8206278, -111.4355381, 129.0000000, -104.9246076, 89.8474832, 157.2982063, 0.0000000, 3.7614161, 36.0000000, 2.0000000, 0.0100000, 304.7718993, 249.6347144, 360.1179859, 28.0269058, 32.7284193, -50.0000000, 34.8269339, -0.1979400, -31.5302691, 0.0000000, -0.0000000, 0.0000000, 0.0000000, 0.0000000, 0.0000000
-139.5403587, -111.1082539, 128.5000000, -104.5763383, 89.8455038, 156.9829036, 0.0000000, 3.7620789, 36.5000000, 2.0000000, 0.0100000, 304.9638907, 252.3264849, 362.7391973, 28.0269058, 32.7284193, -50.0000000, 34.8269339, -0.1979400, -31.5302691, 0.0000000, 0.0000000, 0.0000000, -0.0000000, 0.0000000, 0.0000000
-139.2600897, -110.7809697, 128.0000000, -104.2280689, 89.8435244, 156.6676009, 0.0000000, 3.7627064, 37.0000000, 2.0000000, 0.0100000, 305.1282211, 255.0186831, 365.3627490, 28.0269058, 32.7284193, -50.0000000, 34.8269339, -0.1979400, -31.5302691, -0.0000000, -0.0000000, 0.0000000, 0.0000000, 0.0000000, 0.0000000
-138.9798206, -110.4536855, 127.5000000, -103.8797996, 89.8415450, 156.3522982, 0.0000000, 3.7632982, 37.5000000, 2.0000000, 0.0100000, 305.2649024, 257.7110388, 367.9885732, 28.0269058, 32.7284193, -50.0000000, 34.8269339, -0.1979400, -31.5302691, 0.0000000, 0.0000000, 0.0000000, -0.0000000, 0.0000000, -0.0000000
-138.6995516, -110.1264013, 127.0000000, -103.5315303, 89.8395656, 156.0369955, 0.0000000, 3.7638542, 38.0000000, 2.0000000, 0.0100000, 305.3739486, 260.4032820, 370.6166017, 28.0269058, 32.7284193, -50.0000000, 34.8269339, -0.1979400, -31.5302691, 0.0000000, 0.0000000, 0.0000000, 0.0000000, 0.0000000, 0.0000000
-138.4192825, -109.7991172, 126.5000000, -103.1832609, 89.8375862, 155.7216928, 0.0000000, 3.7643743, 38.5000000, 2.0000000, 0.0100000, 305.4553769, 263.0951433, 373.2467664, 28.0269058, 32.7284193, -50.0000000, 34.8269339, -0.1979400, -31.5302691, 0.0000000, -0.0000000, 0.0000000, 0.0000000, 0.0000000, 0.0000000
-138.1390135, -109.4718330, 126.0000000, -102.8349916, 89.8356068, 155.4063901, 0.0000000, 3.7648582, 39.0000000, 2.0000000, 0.0100000, 305.5092068, 265.7863532, 375.8789989, 28.0269058, 32.7284193, -50.0000000, 34.8269339, -0.1979400, -31.5302691, 0.0000000, 0.0000000, 0.0000000, 0.0000000, 0.0000000, 0.0000000
-137.8587444, -109.1445488, 125.5000000, -102.4867223, 89.8336274, 155.0910874, 0.0000000, 3.7653057, 39.5000000, 2.0000000, 0.0100000, 305.5354605, 268.4766430, 378.5132310, 28.0269058, 32.7284193, -50.0000000, 34.8269339, -0.1979400, -31.5302691, -0.0000000, -0.0000000, 0.0000000, -0.0000000, -0.0000000, -0.0000000
-137.5784753, -108.8172646, 125.0000000, -102.1384529, 89.8316480, 154.7757848, 0.0000000, 3.7657167, 40.0000000, 2.0000000, 0.0100000, 305.5341629, 271.1657441, 381.1493941, 28.0269058, 32.7284193, -50.0000000, 34.8269339, -0.1979400, -31.5302691, 0.0000000, 0.0000000, 0.0000000, 0.0000000, 0.0000000, 0.0000000
-137.2982063, -108.4899804, 124.5000000, -101.7901836, 89.8296686, 154.4604821, 0.0000000, 3.7660910, 40.5000000, 2.0000000, 0.0100000, 305.5053417, 273.8533884, 383.7874196, 28.0269058, 32.7284193, -50.0000000, 34.8269339, -0.1979400, -31.5302691, 0.0000000, 0.0000000, 0.0000000, 0.0000000, 0.0000000, 0.0000000
-137.0179372, -108.1626962, 124.0000000, -101.4419142, 89.8276892, 154.1451794, 0.0000000, 3.7664283, 41.0000000, 2.0000000, 0.0100000, 305.4490270, 276.5393084, 386.4272387, 28.0269058, 32.7284193, -50.0000000, 34.8269339, -0.1979400, -31.5302691, 0.0000000, -0.0000000, 0.0000000, -0.0000000, 0.0000000, -0.0000000
-136.7376682, -107.8354120, 123.5000000, -101.0936449, 89.8257098, 153.8298767, 0.0000000, 3.7667287, 41.5000000, 2.0000000, 0.0100000, 305.3652516, 279.2232368, 389.0687827, 28.0269058, 32.7284193, -50.0000000, 34.8269339, -0.1979400, -31.5302691, 0.0000000, 0.0000000, 0.0000000, 0.0000000, 0.0000000, 0.0000000
-136.4573991, -107.5081278, 123.0000000, -100.7453756, 89.8237304, 153.5145740, 0.0000000, 3.7669918, 42.0000000, 2.0000000, 0.0100000, 305.2540509, 281.9049071, 391.7119826, 28.0269058, 32.7284193, -50.0000000, 34.8269339, -0.1979400, -31.5302691, -0.0000000, -0.0000000, 0.0000000, 0.0000000, 0.0000000, 0.0000000
-136.1771300, -107.1808436, 122.5000000, -100.3971062, 89.8217510, 153.1992713, 0.0000000, 3.7672175, 42.5000000, 2.0000000, 0.0100000, 305.1154632, 284.5840532, 394.3567695, 28.0269058, 32.7284193, -50.0000000, 34.8269339, -0.1979400, -31.5302691, 0.0000000, 0.0000000, 0.0000000, 0.0000000, 0.0000000, -0.0000000
-135.8968610, -106.8535594, 122.0000000, -100.0488369, 89.8197716, 152.8839686, 0.0000000, 3.7674056, 43.0000000, 2.0000000, 0.0100000, 304.9495289, 287.2604094, 397.0030742, 28.0269058, 32.7284193, -50.0000000, 34.8269339, -0.1979400, -31.5302691, 0.0000000, 0.0000000, 0.0000000, -0.0000000, 0.0000000, 0.0000000
-135.6165919, -106.5262752, 121.5000000, -99.7005675, 89.8177922, 152.5686659, 0.0000000, 3.7675561, 43.5000000, 2.0000000, 0.0100000, 304.7562915, 289.9337108, 399.6508274, 28.0269058, 32.7284193, -50.0000000, 34.8269339, -0.1979400, -31.5302691, 0.0000000, -0.0000000, 0.0000000, 0.0000000, -0.0000000, 0.0000000
-135.3363229, -106.1989910, 121.0000000, -99.3522982, 89.8158128, 152.2533632, 0.0000000, 3.7676686, 44.0000000, 2.0000000, 0.0100000, 304.5357968, 292.6036931, 402.2999600, 28.0269058, 32.7284193, -50.0000000, 34.8269339, -0.1979400, -31.5302691, 0.0000000, 0.0000000, 0.0000000, -0.0000000, 0.0000000, 0.0000000
-135.0560538, -105.8717068, 120.5000000, -99.0040289, 89.8138334, 151.9380605, 0.0000000, 3.7677431, 44.5000000, 2.0000000, 0.0100000, 304.2880933, 295.2700925, 404.9504026, 28.0269058, 32.7284193, -50.0000000, 34.8269339, -0.1979400, -31.5302691, 0.0000000, -0.0000000, 0.0000000, 0.0000000, 0.0000000, 0.0000000
-134.7757848, -105.5444226, 120.0000000, -98.6557595, 89.8118540, 151.6227578, 0.0000000, 3.7677795, 45.0000000, 2.0000000, 0.0100000, 304.0132320, 297.9326459, 407.6020856, 28.0269058, 32.7284193, -50.0000000, 34.8269339, -0.1979400, -31.5302691, -0.0000000, 0.0000000, 0.0000000, 0.0000000, 0.0000000, -0.0000000
-134.4955157, -105.2171385, 119.5000000, -98.3074902, 89.8098746, 151.3074552, 0.0000000, 3.7677775, 45.5000000, 2.0000000, 0.0100000, 303.7112666, 300.5910909, 410.2549395, 28.0269058, 32.7284193, -50.0000000, 34.8269339, -0.1979400, -31.5302691, 0.0000000, 0.0000000, 0.0000000, -0.0000000, 0.0000000, 0.0000000
-134.2152466, -104.8898543, 119.0000000, -97.9592209, 89.8078952, 150.9921525, 0.0000000, 3.7677370, 46.0000000, 2.0000000, 0.0100000, 303.3822533, 303.2451659, 412.9088947, 28.0269058, 32.7284193, -50.0000000, 34.8269339, -0.1979400, -31.5302691, 0.0000000, -0.0000000, 0.0000000, 0.0000000, 0.0000000, 0.0000000
-133.9349776, -104.5625701, 118.5000000, -97.6109515, 89.8059158, 150.6768498, 0.0000000, 3.7676579, 46.5000000, 2.0000000, 0.0100000, 303.0262508, 305.8946100, 415.5638814, 28.0269058, 32.7284193, -50.0000000, 34.8269339, -0.1979400, -31.5302691, 0.0000000, 0.0000000, 0.0000000, 0.0000000, 0.0000000, -0.0000000
-133.6547085, -104.2352859, 118.0000000, -97.2626822, 89.8039364, 150.3615471, 0.0000000, 3.7675400, 47.0000000, 2.0000000, 0.0100000, 302.6433205, 308.5391628, 418.2198299, 28.0269058, 32.7284193, -50.0000000, 34.8269339, -0.1979400, -31.5302691, 0.0000000, 0.0000000, 0.0000000, -0.0000000, 0.0000000, 0.0000000
-133.3744395, -103.9080017, 117.5000000, -96.9144128, 89.8019570, 150.0462444, 0.0000000, 3.7673832, 47.5000000, 2.0000000, 0.0100000, 302.2335262, 311.1785651, 420.8766702, 28.0269058, 32.7284193, -50.0000000, 34.8269339, -0.1979400, -31.5302691, -0.0000000, 0.0000000, 0.0000000, 0.0000000, -0.0000000, 0.0000000
-133.0941704, -103.5807175, 117.0000000, -96.5661435, 89.7999776, 149.7309417, 0.0000000, 3.7671874, 48.0000000, 2.0000000, 0.0100000, 301.7969343, 313.8125582, 423.5343325, 28.0269058, 32.7284193, -50.0000000, 34.8269339, -0.1979400, -31.5302691, 0.0000000, -0.0000000, 0.0000000, 0.0000000, 0.0000000, -0.0000000
-132.8139013, -103.2534333, 116.5000000, -96.2178742, 89.7979982, 149.4156390, 0.0000000, 3.7669524, 48.5000000, 2.0000000, 0.0100000, 301.3336136, 316.4408843, 426.1927467, 28.0269058, 32.7284193, -50.0000000, 34.8269339, -0.1979400, -31.5302691, 0.0000000, 0.0000000, 0.0000000, 0.0000000, 0.0000000, 0.0000000
-132.5336323, -102.9261491, 116.0000000, -95.8696048, 89.7960188, 149.1003363, 0.0000000, 3.7666782, 49.0000000, 2.0000000, 0.0100000, 300.8436356, 319.0632867, 428.8518428, 28.0269058, 32.7284193, -50.0000000, 34.8269339, -0.1979400, -31.5302691, 0.0000000, -0.0000000, 0.0000000, 0.0000000, 0.0000000, 0.0000000
-132.2533632, -102.5988649, 115.5000000, -95.5213355, 89.7940394, 148.7850336, 0.0000000, 3.7663644, 49.5000000, 2.0000000, 0.0100000, 300.3270743, 321.6795093, 431.5115504, 28.0269058, 32.7284193, -50.0000000, 34.8269339, -0.1979400, -31.5302691, -0.0000000, 0.0000000, 0.0000000, 0.0000000, 0.0000000, 0.0000000
-131.9730942, -102.2715807, 115.0000000, -95.1730661, 89.7920600, 148.4697309, 0.0000000, 3.7660112, 50.0000000, 2.0000000, 0.0100000, 299.7840058, 324.2892969, 434.1717996, 28.0269058, 32.7284193, -50.0000000, 34.8269339, -0.1979400, -31.5302691, 0.0000000, 0.0000000, 0.0000000, -0.0000000, 0.0000000, -0.0000000
-131.6928251, -101.9442965, 114.5000000, -94.8247968, 89.7900806, 148.1544283, 0.0000000, 3.7656183, 50.5000000, 2.0000000, 0.0100000, 299.2145093, 326.8923955, 436.8325198, 28.0269058, 32.7284193, -50.0000000, 34.8269339, -0.1979400, -31.5302691, 0.0000000, -0.0000000, 0.0000000, 0.0000000, 0.0000000, 0.0000000
-131.4125561, -101.6170123, 114.0000000, -94.4765275, 89.7881012, 147.8391256, 0.0000000, 3.7651855, 51.0000000, 2.0000000, 0.0100000, 298.6186660, 329.4885518, 439.4936409, 28.0269058, 32.7284193, -50.0000000, 34.8269339, -0.1979400, -31.5302691, 0.0000000, 0.0000000, 0.0000000, 0.0000000, 0.0000000, 0.0000000
-131.1322870, -101.2897281, 113.5000000, -94.1282581, 89.7861218, 147.5238229, 0.0000000, 3.7647129, 51.5000000, 2.0000000, 0.0100000, 297.9965596, 332.0775137, 442.1550923, 28.0269058, 32.7284193, -50.0000000, 34.8269339, -0.1979400, -31.5302691, 0.0000000, 0.0000000, 0.0000000, 0.0000000, -0.0000000, 0.0000000
-130.8520179, -100.9624439, 113.0000000, -93.7799888, 89.7841424, 147.2085202, 0.0000000, 3.7642003, 52.0000000, 2.0000000, 0.0100000, 297.3482765, 334.6590298, 444.8168036, 28.0269058, 32.7284193, -50.0000000, 34.8269339, -0.1979400, -31.5302691, 0.0000000, 0.0000000, 0.0000000, 0.0000000, 0.0000000, -0.0000000
-130.5717489, -100.6351598, 112.5000000, -93.4317195, 89.7821630, 146.8932175, 0.0000000, 3.7636475, 52.5000000, 2.0000000, 0.0100000, 296.6739053, 337.2328501, 447.4787044, 28.0269058, 32.7284193, -50.0000000, 34.8269339, -0.1979400, -31.5302691, -0.0000000, 0.0000000, 0.0000000, -0.0000000, 0.0000000, 0.0000000
-130.2914798, -100.3078756, 112.0000000, -93.0834501, 89.7801836, 146.5779148, 0.0000000, 3.7630546, 53.0000000, 2.0000000, 0.0100000, 295.9735372, 339.7987254, 450.1407239, 28.0269058, 32.7284193, -50.0000000, 34.8269339, -0.1979400, -31.5302691, 0.0000000, -0.0000000, 0.0000000, 0.0000000, 0.0000000, 0.0000000
-130.0112108, -99.9805914, 111.5000000, -92.7351808, 89.7782042, 146.2626121, 0.0000000, 3.7624212, 53.5000000, 2.0000000, 0.0100000, 295.2472656, 342.3564076, 452.8027917, 28.0269058, 32.7284193, -50.0000000, 34.8269339, -0.1979400, -31.5302691, 0.0000000, 0.0000000, 0.0000000, -0.0000000, 0.0000000, -0.0000000
-129.7309417, -99.6533072, 111.0000000, -92.3869114, 89.7762248, 145.9473094, 0.0000000, 3.7617475, 54.0000000, 2.0000000, 0.0100000, 294.4951864, 344.9056499, 455.4648369, 28.0269058, 32.7284193, -50.0000000, 34.8269339, -0.1979400, -31.5302691, 0.0000000, 0.0000000, 0.0000000, 0.0000000, 0.0000000, 0.0000000
-129.4506726, -99.3260230, 110.5000000, -92.0386421, 89.7742454, 145.6320067, 0.0000000, 3.7610332, 54.5000000, 2.0000000, 0.0100000, 293.7173979, 347.4462063, 458.1267890, 28.0269058, 32.7284193, -50.0000000, 34.8269339, -0.1979400, -31.5302691, -0.0000000, 0.0000000, 0.0000000, 0.0000000, 0.0000000, 0.0000000
-129.1704036, -98.9987388, 110.0000000, -91.6903728, 89.7722660, 145.3167040, 0.0000000, 3.7602783, 55.0000000, 2.0000000, 0.0100000, 292.9140008, 349.9778324, 460.7885771, 28.0269058, 32.7284193, -50.0000000, 34.8269339, -0.1979400, -31.5302691, 0.0000000, -0.0000000, 0.0000000, 0.0000000, 0.0000000, -0.0000000
-128.8901345, -98.6714546, 109.5000000, -91.3421034, 89.7702866, 145.0014013, 0.0000000, 3.7594827, 55.5000000, 2.0000000, 0.0100000, 292.0850982, 352.5002844, 463.4501304, 28.0269058, 32.7284193, -50.0000000, 34.8269339, -0.1979400, -31.5302691, 0.0000000, 0.0000000, 0.0000000, -0.0000000, 0.0000000, 0.0000000
-128.6098655, -98.3441704, 109.0000000, -90.9938341, 89.7683072, 144.6860987, 0.0000000, 3.7586463, 56.0000000, 2.0000000, 0.0100000, 291.2307953, 355.0133203, 466.1113780, 28.0269058, 32.7284193, -50.0000000, 34.8269339, -0.1979400, -31.5302691, 0.0000000, 0.0000000, 0.0000000, 0.0000000, -0.0000000, 0.0000000
-128.3295964, -98.0168862, 108.5000000, -90.6455647, 89.7663278, 144.3707960, 0.0000000, 3.7577690, 56.5000000, 2.0000000, 0.0100000, 290.3511999, 357.5166989, 468.7722491, 28.0269058, 32.7284193, -50.0000000, 34.8269339, -0.1979400, -31.5302691, 0.0000000, 0.0000000, 0.0000000, -0.0000000, 0.0000000, 0.0000000
-128.0493274, -97.6896020, 108.0000000, -90.2972954, 89.7643484, 144.0554933, 0.0000000, 3.7568507, 57.0000000, 2.0000000, 0.0100000, 289.4464219, 360.0101803, 471.4326728, 28.0269058, 32.7284193, -50.0000000, 34.8269339, -0.1979400, -31.5302691, 0.0000000, 0.0000000, 0.0000000, 0.0000000, 0.0000000, 0.0000000
-127.7690583, -97.3623178, 107.5000000, -89.9490261, 89.7623690, 143.7401906, 0.0000000, 3.7558913, 57.5000000, 2.0000000, 0.0100000, 288.5165738, 362.4935260, 474.0925781, 28.0269058, 32.7284193, -50.0000000, 34.8269339, -0.1979400, -31.5302691, -0.0000000, 0.0000000, 0.0000000, 0.0000000, 0.0000000, -0.0000000
-127.4887892, -97.0350336, 107.0000000, -89.6007567, 89.7603896, 143.4248879, 0.0000000, 3.7548909, 58.0000000, 2.0000000, 0.0100000, 287.5617701, 364.9664988, 476.7518940, 28.0269058, 32.7284193, -50.0000000, 34.8269339, -0.1979400, -31.5302691, 0.0000000, -0.0000000, 0.0000000, 0.0000000, 0.0000000, 0.0000000
-127.2085202, -96.7077494, 106.5000000, -89.2524874, 89.7584102, 143.1095852, 0.0000000, 3.7538492, 58.5000000, 2.0000000, 0.0100000, 286.5821277, 367.4288626, 479.4105495, 28.0269058, 32.7284193, -50.0000000, 34.8269339, -0.1979400, -31.5302691, 0.0000000, 0.0000000, 0.0000000, 0.0000000, 0.0000000, 0.0000000
-126.9282511, -96.3804652, 106.0000000, -88.9042180, 89.7564308, 142.7942825, 0.0000000, 3.7527663, 59.0000000, 2.0000000, 0.0100000, 285.5777657, 369.8803829, 482.0684736, 28.0269058, 32.7284193, -50.0000000, 34.8269339, -0.1979400, -31.5302691, 0.0000000, 0.0000000, 0.0000000, -0.0000000, 0.0000000, -0.0000000
-126.6479821, -96.0531811, 105.5000000, -88.5559487, 89.7544514, 142.4789798, 0.0000000, 3.7516420, 59.5000000, 2.0000000, 0.0100000, 284.5488055, 372.3208263, 484.7255951, 28.0269058, 32.7284193, -50.0000000, 34.8269339, -0.1979400, -31.5302691, -0.0000000, 0.0000000, 0.0000000, 0.0000000, 0.0000000, 0.0000000
-126.3677130, -95.7258969, 105.0000000, -88.2076794, 89.7524720, 142.1636771, 0.0000000, 3.7504763, 60.0000000, 2.0000000, 0.0100000, 283.4953707, 374.7499609, 487.3818430, 28.0269058, 32.7284193, -50.0000000, 34.8269339, -0.1979400, -31.5302691, 0.0000000, -0.0000000, 0.0000000, 0.0000000, -0.0000000, 0.0000000
-126.0874439, -95.3986127, 104.5000000, -87.8594100, 89.7504926, 141.8483744, 0.0000000, 3.7492692, 60.5000000, 2.0000000, 0.0100000, 282.4175873, 377.1675563, 490.0371462, 28.0269058, 32.7284193, -50.0000000, 34.8269339, -0.1979400, -31.5302691, 0.0000000, 0.0000000, 0.0000000, 0.0000000, 0.0000000, -0.0000000
-125.8071749, -95.0713285, 104.0000000, -87.5111407, 89.7485132, 141.5330717, 0.0000000, 3.7480205, 61.0000000, 2.0000000, 0.0100000, 281.3155831, 379.5733833, 492.6914336, 28.0269058, 32.7284193, -50.0000000, 34.8269339, -0.1979400, -31.5302691, 0.0000000, 0.0000000, 0.0000000, 0.0000000, 0.0000000, 0.0000000
-125.5269058, -94.7440443, 103.5000000, -87.1628714, 89.7465338, 141.2177691, 0.0000000, 3.7467303, 61.5000000, 2.0000000, 0.0100000, 280.1894885, 381.9672143, 495.3446339, 28.0269058, 32.7284193, -50.0000000, 34.8269339, -0.1979400, -31.5302691, 0.0000000, 0.0000000, 0.0000000, 0.0000000, 0.0000000, 0.0000000
-125.2466368, -94.4167601, 103.0000000, -86.8146020, 89.7445544, 140.9024664, 0.0000000, 3.7453984, 62.0000000, 2.0000000, 0.0100000, 279.0394357, 384.3488230, 497.9966761, 28.0269058, 32.7284193, -50.0000000, 34.8269339, -0.1979400, -31.5302691, -0.0000000, -0.0000000, 0.0000000, -0.0000000, 0.0000000, 0.0000000
-124.9663677, -94.0894759, 102.5000000, -86.4663327, 89.7425750, 140.5871637, 0.0000000, 3.7440249, 62.5000000, 2.0000000, 0.0100000, 277.8655594, 386.7179849, 500.6474890, 28.0269058, 32.7284193, -50.0000000, 34.8269339, -0.1979400, -31.5302691, 0.0000000, 0.0000000, 0.0000000, 0.0000000, 0.0000000, -0.0000000
-124.6860987, -93.7621917, 102.0000000, -86.1180633, 89.7405956, 140.2718610, 0.0000000, 3.7426096, 63.0000000, 2.0000000, 0.0100000, 276.6679962, 389.0744766, 503.2970013, 28.0269058, 32.7284193, -50.0000000, 34.8269339, -0.1979400, -31.5302691, 0.0000000, -0.0000000, 0.0000000, -0.0000000, 0.0000000, 0.0000000
-124.4058296, -93.4349075, 101.5000000, -85.7697940, 89.7386162, 139.9565583, 0.0000000, 3.7411525, 63.5000000, 2.0000000, 0.0100000, 275.4468849, 391.4180766, 505.9451419, 28.0269058, 32.7284193, -50.0000000, 34.8269339, -0.1979400, -31.5302691, 0.0000000, 0.0000000, 0.0000000, 0.0000000, 0.0000000, 0.0000000
-124.1255605, -93.1076233, 101.0000000, -85.4215247, 89.7366368, 139.6412556, 0.0000000, 3.7396536, 64.0000000, 2.0000000, 0.0100000, 274.2023664, 393.7485646, 508.5918396, 28.0269058, 32.7284193, -50.0000000, 34.8269339, -0.1979400, -31.5302691, 0.0000000, 0.0000000, 0.0000000, 0.0000000, -0.0000000, 0.0000000
-123.8452915, -92.7803391, 100.5000000, -85.0732553, 89.7346574, 139.3259529, 0.0000000, 3.7381129, 64.5000000, 2.0000000, 0.0100000, 272.9345837, 396.0657221, 511.2370232, 28.0269058, 32.7284193, -50.0000000, 34.8269339, -0.1979400, -31.5302691, -0.0000000, -0.0000000, 0.0000000, 0.0000000, 0.0000000, -0.0000000
-123.5650224, -92.4530549, 100.0000000, -84.7249860, 89.7326780, 139.0106502, 0.0000000, 3.7365303, 65.0000000, 2.0000000, 0.0100000, 271.6436818, 398.3693320, 513.8806215, 28.0269058, 32.7284193, -50.0000000, 34.8269339, -0.1979400, -31.5302691, 0.0000000, 0.0000000, 0.0000000, -0.0000000, 0.0000000, 0.0000000
-123.2847534, -92.1257707, 99.5000000, -84.3767166, 89.7306986, 138.6953475, 0.0000000, 3.7349058, 65.5000000, 2.0000000, 0.0100000, 270.3298078, 400.6591792, 516.5225633, 28.0269058, 32.7284193, -50.0000000, 34.8269339, -0.1979400, -31.5302691, 0.0000000, 0.0000000, 0.0000000, 0.0000000, 0.0000000, 0.0000000
-123.0044843, -91.7984865, 99.0000000, -84.0284473, 89.7287192, 138.3800448, 0.0000000, 3.7332393, 66.0000000, 2.0000000, 0.0100000, 268.9931108, 402.9350496, 519.1627774, 28.0269058, 32.7284193, -50.0000000, 34.8269339, -0.1979400, -31.5302691, 0.0000000, 0.0000000, 0.0000000, -0.0000000, 0.0000000, -0.0000000
-122.7242152, -91.4712024, 98.5000000, -83.6801780, 89.7267398, 138.0647422, 0.0000000, 3.7315309, 66.5000000, 2.0000000, 0.0100000, 267.6337419, 405.1967314, 521.8011927, 28.0269058, 32.7284193, -50.0000000, 34.8269339, -0.1979400, -31.5302691, 0.0000000, 0.0000000, 0.0000000, 0.0000000, 0.0000000, 0.0000000
-122.4439462, -91.1439182, 98.0000000, -83.3319086, 89.7247604, 137.7494395, 0.0000000, 3.7297804, 67.0000000, 2.0000000, 0.0100000, 266.2518544, 407.4440139, 524.4377378, 28.0269058, 32.7284193, -50.0000000, 34.8269339, -0.1979400, -31.5302691, -0.0000000, -0.0000000, 0.0000000, 0.0000000, 0.0000000, 0.0000000
-122.1636771, -90.8166340, 97.5000000, -82.9836393, 89.7227810, 137.4341368, 0.0000000, 3.7279880, 67.5000000, 2.0000000, 0.0100000, 264.8476033, 409.6766884, 527.0723417, 28.0269058, 32.7284193, -50.0000000, 34.8269339, -0.1979400, -31.5302691, 0.0000000, 0.0000000, 0.0000000, 0.0000000, 0.0000000, -0.0000000
-121.8834081, -90.4893498, 97.0000000, -82.6353700, 89.7208016, 137.1188341, 0.0000000, 3.7261535, 68.0000000, 2.0000000, 0.0100000, 263.4211457, 411.8945479, 529.7049332, 28.0269058, 32.7284193, -50.0000000, 34.8269339, -0.1979400, -31.5302691, 0.0000000, 0.0000000, 0.0000000, 0.0000000, -0.0000000, 0.0000000
-121.6031390, -90.1620656, 96.5000000, -82.2871006, 89.7188222, 136.8035314, 0.0000000, 3.7242770, 68.5000000, 2.0000000, 0.0100000, 261.9726406, 414.0973869, 532.3354412, 28.0269058, 32.7284193, -50.0000000, 34.8269339, -0.1979400, -31.5302691, 0.0000000, 0.0000000, 0.0000000, 0.0000000, 0.0000000, 0.0000000
-121.3228700, -89.8347814, 96.0000000, -81.9388313, 89.7168428, 136.4882287, 0.0000000, 3.7223584, 69.0000000, 2.0000000, 0.0100000, 260.5022489, 416.2850020, 534.9637944, 28.0269058, 32.7284193, -50.0000000, 34.8269339, -0.1979400, -31.5302691, 0.0000000, -0.0000000, 0.0000000, -0.0000000, 0.0000000, 0.0000000
-121.0426009, -89.5074972, 95.5000000, -81.5905619, 89.7148634, 136.1729260, 0.0000000, 3.7203978, 69.5000000, 2.0000000, 0.0100000, 259.0101336, 418.4571912, 537.5899219, 28.0269058, 32.7284193, -50.0000000, 34.8269339, -0.1979400, -31.5302691, -0.0000000, 0.0000000, 0.0000000, 0.0000000, 0.0000000, 0.0000000
-120.7623318, -89.1802130, 95.0000000, -81.2422926, 89.7128840, 135.8576233, 0.0000000, 3.7183951, 70.0000000, 2.0000000, 0.0100000, 257.4964593, 420.6137544, 540.2137525, 28.0269058, 32.7284193, -50.0000000, 34.8269339, -0.1979400, -31.5302691, 0.0000000, -0.0000000, 0.0000000, 0.0000000, 0.0000000, -0.0000000
-120.4820628, -88.8529288, 94.5000000, -80.8940233, 89.7109046, 135.5423206, 0.0000000, 3.7163503, 70.5000000, 2.0000000, 0.0100000, 255.9613926, 422.7544933, 542.8352152, 28.0269058, 32.7284193, -50.0000000, 34.8269339, -0.1979400, -31.5302691, -0.0000000, 0.0000000, 0.0000000, 0.0000000, 0.0000000, 0.0000000
-120.2017937, -88.5256446, 94.0000000, -80.5457539, 89.7089252, 135.2270179, 0.0000000, 3.7142634, 71.0000000, 2.0000000, 0.0100000, 254.4051020, 424.8792116, 545.4542388, 28.0269058, 32.7284193, -50.0000000, 34.8269339, -0.1979400, -31.5302691, 0.0000000, 0.0000000, 0.0000000, 0.0000000, 0.0000000, 0.0000000
-119.9215247, -88.1983604, 93.5000000, -80.1974846, 89.7069458, 134.9117152, 0.0000000, 3.7121345, 71.5000000, 2.0000000, 0.0100000, 252.8277578, 426.9877144, 548.0707525, 28.0269058, 32.7284193, -50.0000000, 34.8269339, -0.1979400, -31.5302691, 0.0000000, -0.0000000, 0.0000000, -0.0000000, 0.0000000, -0.0000000
-119.6412556, -87.8710762, 93.0000000, -79.8492152, 89.7049664, 134.5964126, 0.0000000, 3.7099636, 72.0000000, 2.0000000, 0.0100000, 251.2295319, 429.0798090, 550.6846852, 28.0269058, 32.7284193, -50.0000000, 34.8269339, -0.1979400, -31.5302691, -0.0000000, 0.0000000, 0.0000000, 0.0000000, 0.0000000, 0.0000000
-119.3609865, -87.5437920, 92.5000000, -79.5009459, 89.7029870, 134.2811099, 0.0000000, 3.7077506, 72.5000000, 2.0000000, 0.0100000, 249.6105984, 431.1553045, 553.2959659, 28.0269058, 32.7284193, -50.0000000, 34.8269339, -0.1979400, -31.5302691, 0.0000000, 0.0000000, 0.0000000, -0.0000000, -0.0000000, 0.0000000
-119.0807175, -87.2165078, 92.0000000, -79.1526766, 89.7010076, 133.9658072, 0.0000000, 3.7054956, 73.0000000, 2.0000000, 0.0100000, 247.9711328, 433.2140118, 555.9045238, 28.0269058, 32.7284193, -50.0000000, 34.8269339, -0.1979400, -31.5302691, -0.0000000, 0.0000000, 0.0000000, 0.0000000, 0.0000000, -0.0000000
-118.8004484, -86.8892237, 91.5000000, -78.8044072, 89.6990282, 133.6505045, 0.0000000, 3.7031985, 73.5000000, 2.0000000, 0.0100000, 246.3113125, 435.2557438, 558.5102879, 28.0269058, 32.7284193, -50.0000000, 34.8269339, -0.1979400, -31.5302691, 0.0000000, 0.0000000, 0.0000000, 0.0000000, 0.0000000, 0.0000000
-118.5201794, -86.5619395, 91.0000000, -78.4561379, 89.6970488, 133.3352018, 0.0000000, 3.7008595, 74.0000000, 2.0000000, 0.0100000, 244.6313165, 437.2803150, 561.1131875, 28.0269058, 32.7284193, -50.0000000, 34.8269339, -0.1979400, -31.5302691, 0.0000000, -0.0000000, 0.0000000, 0.0000000, 0.0000000, 0.0000000
-118.2399103, -86.2346553, 90.5000000, -78.1078686, 89.6950694, 133.0198991, 0.0000000, 3.6984785, 74.5000000, 2.0000000, 0.0100000, 242.9313258, 439.2875423, 563.7131517, 28.0269058, 32.7284193, -50.0000000, 34.8269339, -0.1979400, -31.5302691, -0.0000000, 0.0000000, 0.0000000, -0.0000000, 0.0000000, 0.0000000
-117.9596413, -85.9073711, 90.0000000, -77.7595992, 89.6930900, 132.7045964, 0.0000000, 3.6960556, 75.0000000, 2.0000000, 0.0100000, 241.2115229, 441.2772443, 566.3101097, 28.0269058, 32.7284193, -50.0000000, 34.8269339, -0.1979400, -31.5302691, 0.0000000, 0.0000000, -0.0000000, 0.0000000, -0.0000000, 0.0000000
-117.6793722, -85.5800869, 89.5000000, -77.4113299, 89.6911106, 132.3892937, 0.0000000, 3.6935908, 75.5000000, 2.0000000, 0.0100000, 239.4720918, 443.2492414, 568.9039908, 28.0269058, 32.7284193, -50.0000000, 34.8269339, -0.1979400, -31.5302691, -0.0000000, -0.0000000, 0.0000000, -0.0000000, 0.0000000, 0.0000000
-117.3991031, -85.2528027, 89.0000000, -77.0630605, 89.6891312, 132.0739910, 0.0000000, 3.6910840, 76.0000000, 2.0000000, 0.0100000, 237.7132183, 445.2033563, 571.4947244, 28.0269058, 32.7284193, -50.0000000, 34.8269339, -0.1979400, -31.5302691, 0.0000000, 0.0000000, -0.0000000, 0.0000000, 0.0000000, -0.0000000
-117.1188341, -84.9255185, 88.5000000, -76.7147912, 89.6871518, 131.7586883, 0.0000000, 3.6885355, 76.5000000, 2.0000000, 0.0100000, 235.9350900, 447.1394135, 574.0822399, 28.0269058, 32.7284193, -50.0000000, 34.8269339, -0.1979400, -31.5302691, 0.0000000, -0.0000000, 0.0000000, -0.0000000, -0.0000000, 0.0000000
-116.8385650, -84.5982343, 88.0000000, -76.3665219, 89.6851724, 131.4433857, 0.0000000, 3.6859451, 77.0000000, 2.0000000, 0.0100000, 234.1378959, 449.0572395, 576.6664666, 28.0269058, 32.7284193, -50.0000000, 34.8269339, -0.1979400, -31.5302691, -0.0000000, 0.0000000, 0.0000000, 0.0000000, 0.0000000, -0.0000000
-116.5582960, -84.2709501, 87.5000000, -76.0182525, 89.6831930, 131.1280830, 0.0000000, 3.6833130, 77.5000000, 2.0000000, 0.0100000, 232.3218265, 450.9566629, 579.2473341, 28.0269058, 32.7284193, -50.0000000, 34.8269339, -0.1979400, -31.5302691, 0.0000000, 0.0000000, 0.0000000, 0.0000000, 0.0000000, 0.0000000
-116.2780269, -83.9436659, 87.0000000, -75.6699832, 89.6812136, 130.8127803, 0.0000000, 3.6806391, 78.0000000, 2.0000000, 0.0100000, 230.4870740, 452.8375143, 581.8247719, 28.0269058, 32.7284193, -50.0000000, 34.8269339, -0.1979400, -31.5302691, -0.0000000, -0.0000000, 0.0000000, -0.0000000, 0.0000000, 0.0000000
-115.9977578, -83.6163817, 86.5000000, -75.3217138, 89.6792342, 130.4974776, 0.0000000, 3.6779236, 78.5000000, 2.0000000, 0.0100000, 228.6338321, 454.6996263, 584.3987095, 28.0269058, 32.7284193, -50.0000000, 34.8269339, -0.1979400, -31.5302691, 0.0000000, 0.0000000, -0.0000000, 0.0000000, 0.0000000, -0.0000000
-115.7174888, -83.2890975, 86.0000000, -74.9734445, 89.6772548, 130.1821749, 0.0000000, 3.6751664, 79.0000000, 2.0000000, 0.0100000, 226.7622961, 456.5428337, 586.9690767, 28.0269058, 32.7284193, -50.0000000, 34.8269339, -0.1979400, -31.5302691, -0.0000000, -0.0000000, 0.0000000, -0.0000000, 0.0000000, 0.0000000
-115.4372197, -82.9618133, 85.5000000, -74.6251752, 89.6752754, 129.8668722, 0.0000000, 3.6723677, 79.5000000, 2.0000000, 0.0100000, 224.8726626, 458.3669732, 589.5358032, 28.0269058, 32.7284193, -50.0000000, 34.8269339, -0.1979400, -31.5302691, 0.0000000, 0.0000000, -0.0000000, 0.0000000, 0.0000000, -0.0000000
-115.1569507, -82.6345291, 85.0000000, -74.2769058, 89.6732960, 129.5515695, 0.0000000, 3.6695275, 80.0000000, 2.0000000, 0.0100000, 222.9651299, 460.1718838, 592.0988188, 28.0269058, 32.7284193, -50.0000000, 34.8269339, -0.1979400, -31.5302691, -0.0000000, -0.0000000, 0.0000000, -0.0000000, 0.0000000, 0.0000000
-114.8766816, -82.3072450, 84.5000000, -73.9286365, 89.6713166, 129.2362668, 0.0000000, 3.6666458, 80.5000000, 2.0000000, 0.0100000, 221.0398975, 461.9574063, 594.6580533, 28.0269058, 32.7284193, -50.0000000, 34.8269339, -0.1979400, -31.5302691, 0.0000000, 0.0000000, -0.0000000, 0.0000000, -0.0000000, 0.0000000
-114.5964126, -81.9799608, 84.0000000, -73.5803672, 89.6693372, 128.9209641, 0.0000000, 3.6637228, 81.0000000, 2.0000000, 0.0100000, 219.0971665, 463.7233839, 597.2134365, 28.0269058, 32.7284193, -50.0000000, 34.8269339, -0.1979400, -31.5302691, 0.0000000, -0.0000000, 0.0000000, -0.0000000, 0.0000000, 0.0000000
-114.3161435, -81.6526766, 83.5000000, -73.2320978, 89.6673578, 128.6056614, 0.0000000, 3.6607584, 81.5000000, 2.0000000, 0.0100000, 217.1371394, 465.4696619, 599.7648987, 28.0269058, 32.7284193, -50.0000000, 34.8269339, -0.1979400, -31.5302691, 0.0000000, 0.0000000, -0.0000000, 0.0000000, 0.0000000, -0.0000000
-114.0358744, -81.3253924, 83.0000000, -72.8838285, 89.6653784, 128.2903587, 0.0000000, 3.6577528, 82.0000000, 2.0000000, 0.0100000, 215.1600200, 467.1960876, 602.3123697, 28.0269058, 32.7284193, -50.0000000, 34.8269339, -0.1979400, -31.5302691, -0.0000000, 0.0000000, 0.0000000, -0.0000000, 0.0000000, 0.0000000
-113.7556054, -80.9981082, 82.5000000, -72.5355591, 89.6633990, 127.9750561, 0.0000000, 3.6547059, 82.5000000, 2.0000000, 0.0100000, 213.1660136, 468.9025105, 604.8557797, 28.0269058, 32.7284193, -50.0000000, 34.8269339, -0.1979400, -31.5302691, 0.0000000, 0.0000000, -0.0000000, 0.0000000, 0.0000000, -0.0000000
-113.4753363, -80.6708240, 82.0000000, -72.1872898, 89.6614196, 127.6597534, 0.0000000, 3.6516180, 83.0000000, 2.0000000, 0.0100000, 211.1553265, 470.5887824, 607.3950589, 28.0269058, 32.7284193, -50.0000000, 34.8269339, -0.1979400, -31.5302691, -0.0000000, -0.0000000, 0.0000000, -0.0000000, 0.0000000, 0.0000000
-113.1950673, -80.3435398, 81.5000000, -71.8390205, 89.6594402, 127.3444507, 0.0000000, 3.6484891, 83.5000000, 2.0000000, 0.0100000, 209.1281667, 472.2547571, 609.9301377, 28.0269058, 32.7284193, -50.0000000, 34.8269339, -0.1979400, -31.5302691, 0.0000000, 0.0000000, -0.0000000, 0.0000000, 0.0000000, -0.0000000
-112.9147982, -80.0162556, 81.0000000, -71.4907511, 89.6574608, 127.0291480, 0.0000000, 3.6453193, 84.0000000, 2.0000000, 0.0100000, 207.0847434, 473.9002907, 612.4609464, 28.0269058, 32.7284193, -50.0000000, 34.8269339, -0.1979400, -31.5302691, -0.0000000, -0.0000000, 0.0000000, -0.0000000, 0.0000000, 0.0000000
-112.6345291, -79.6889714, 80.5000000, -71.1424818, 89.6554814, 126.7138453, 0.0000000, 3.6421085, 84.5000000, 2.0000000, 0.0100000, 205.0252668, 475.5252415, 614.9874155, 28.0269058, 32.7284193, -50.0000000, 34.8269339, -0.1979400, -31.5302691, 0.0000000, 0.0000000, -0.0000000, 0.0000000, -0.0000000, 0.0000000
-112.3542601, -79.3616872, 80.0000000, -70.7942124, 89.6535020, 126.3985426, 0.0000000, 3.6388571, 85.0000000, 2.0000000, 0.0100000, 202.9499488, 477.1294700, 617.5094755, 28.0269058, 32.7284193, -50.0000000, 34.8269339, -0.1979400, -31.5302691, -0.0000000, -0.0000000, 0.0000000, -0.0000000, 0.0000000, 0.0000000
-112.0739910, -79.0344030, 79.5000000, -70.4459431, 89.6515226, 126.0832399, 0.0000000, 3.6355649, 85.5000000, 2.0000000, 0.0100000, 200.8590020, 478.7128388, 620.0270570, 28.0269058, 32.7284193, -50.0000000, 34.8269339, -0.1979400, -31.5302691, 0.0000000, 0.0000000, -0.0000000, 0.0000000, 0.0000000, -0.0000000
-111.7937220, -78.7071188, 79.0000000, -70.0976738, 89.6495432, 125.7679372, 0.0000000, 3.6322322, 86.0000000, 2.0000000, 0.0100000, 198.7526406, 480.2752130, 622.5400908, 28.0269058, 32.7284193, -50.0000000, 34.8269339, -0.1979400, -31.5302691, 0.0000000, -0.0000000, 0.0000000, -0.0000000, 0.0000000, 0.0000000
-111.5134529, -78.3798346, 78.5000000, -69.7494044, 89.6475638, 125.4526345, 0.0000000, 3.6288590, 86.5000000, 2.0000000, 0.0100000, 196.6310797, 481.8164598, 625.0485078, 28.0269058, 32.7284193, -50.0000000, 34.8269339, -0.1979400, -31.5302691, 0.0000000, 0.0000000, -0.0000000, 0.0000000, 0.0000000, 0.0000000
-111.2331839, -78.0525504, 78.0000000, -69.4011351, 89.6455844, 125.1373318, 0.0000000, 3.6254454, 87.0000000, 2.0000000, 0.0100000, 194.4945359, 483.3364486, 627.5522387, 28.0269058, 32.7284193, -50.0000000, 34.8269339, -0.1979400, -31.5302691, -0.0000000, 0.0000000, 0.0000000, 0.0000000, 0.0000000, 0.0000000
-110.9529148, -77.7252663, 77.5000000, -69.0528658, 89.6436050, 124.8220291, 0.0000000, 3.6219915, 87.5000000, 2.0000000, 0.0100000, 192.3432265, 484.8350511, 630.0512146, 28.0269058, 32.7284193, -50.0000000, 34.8269339, -0.1979400, -31.5302691, 0.0000000, 0.0000000, -0.0000000, 0.0000000, 0.0000000, -0.0000000
-110.6726457, -77.3979821, 77.0000000, -68.7045964, 89.6416256, 124.5067265, 0.0000000, 3.6184975, 88.0000000, 2.0000000, 0.0100000, 190.1773702, 486.3121414, 632.5453667, 28.0269058, 32.7284193, -50.0000000, 34.8269339, -0.1979400, -31.5302691, -0.0000000, -0.0000000, 0.0000000, -0.0000000, 0.0000000, 0.0000000
-110.3923767, -77.0706979, 76.5000000, -68.3563271, 89.6396462, 124.1914238, 0.0000000, 3.6149634, 88.5000000, 2.0000000, 0.0100000, 187.9971866, 487.7675957, 635.0346261, 28.0269058, 32.7284193, -50.0000000, 34.8269339, -0.1979400, -31.5302691, 0.0000000, 0.0000000, -0.0000000, 0.0000000, -0.0000000, -0.0000000
-110.1121076, -76.7434137, 76.0000000, -68.0080577, 89.6376668, 123.8761211, 0.0000000, 3.6113893, 89.0000000, 2.0000000, 0.0100000, 185.8028965, 489.2012927, 637.5189242, 28.0269058, 32.7284193, -50.0000000, 34.8269339, -0.1979400, -31.5302691, 0.0000000, 0.0000000, 0.0000000, -0.0000000, 0.0000000, 0.0000000
-109.8318386, -76.4161295, 75.5000000, -67.6597884, 89.6356874, 123.5608184, 0.0000000, 3.6077755, 89.5000000, 2.0000000, 0.0100000, 183.5947216, 490.6131132, 639.9981923, 28.0269058, 32.7284193, -50.0000000, 34.8269339, -0.1979400, -31.5302691, 0.0000000, 0.0000000, 0.0000000, 0.0000000, 0.0000000, -0.0000000
-109.5515695, -76.0888453, 75.0000000, -67.3115191, 89.6337080, 123.2455157, 0.0000000, 3.6041219, 90.0000000, 2.0000000, 0.0100000, 181.3728848, 492.0029405, 642.4723620, 28.0269058, 32.7284193, -50.0000000, 34.8269339, -0.1979400, -31.5302691, -0.0000000, -0.0000000, 0.0000000, 0.0000000, 0.0000000, 0.0000000
-109.2713004, -75.7615611, 74.5000000, -66.9632497, 89.6317286, 122.9302130, 0.0000000, 3.6004287, 90.5000000, 2.0000000, 0.0100000, 179.1376096, 493.3706600, 644.9413649, 28.0269058, 32.7284193, -50.0000000, 34.8269339, -0.1979400, -31.5302691, 0.0000000, 0.0000000, -0.0000000, 0.0000000, 0.0000000, -0.0000000
-108.9910314, -75.4342769, 74.0000000, -66.6149804, 89.6297492, 122.6149103, 0.0000000, 3.5966961, 91.0000000, 2.0000000, 0.0100000, 176.8891210, 494.7161597, 647.4051328, 28.0269058, 32.7284193, -50.0000000, 34.8269339, -0.1979400, -31.5302691, 0.0000000, -0.0000000, 0.0000000, -0.0000000, 0.0000000, 0.0000000
-108.7107623, -75.1069927, 73.5000000, -66.2667110, 89.6277698, 122.2996076, 0.0000000, 3.5929242, 91.5000000, 2.0000000, 0.0100000, 174.6276443, 496.0393297, 649.8635975, 28.0269058, 32.7284193, -50.0000000, 34.8269339, -0.1979400, -31.5302691, -0.0000000, 0.0000000, -0.0000000, 0.0000000, 0.0000000, 0.0000000
-108.4304933, -74.7797085, 73.0000000, -65.9184417, 89.6257904, 121.9843049, 0.0000000, 3.5891130, 92.0000000, 2.0000000, 0.0100000, 172.3534063, 497.3400626, 652.3166910, 28.0269058, 32.7284193, -50.0000000, 34.8269339, -0.1979400, -31.5302691, 0.0000000, 0.0000000, -0.0000000, 0.0000000, 0.0000000, -0.0000000
-108.1502242, -74.4524243, 72.5000000, -65.5701724, 89.6238110, 121.6690022, 0.0000000, 3.5852628, 92.5000000, 2.0000000, 0.0100000, 170.0666344, 498.6182534, 654.7643454, 28.0269058, 32.7284193, -50.0000000, 34.8269339, -0.1979400, -31.5302691, -0.0000000, -0.0000000, 0.0000000, -0.0000000, 0.0000000, 0.0000000
-107.8699552, -74.1251401, 72.0000000, -65.2219030, 89.6218316, 121.3536996, 0.0000000, 3.5813737, 93.0000000, 2.0000000, 0.0100000, 167.7675567, 499.8737992, 657.2064929, 28.0269058, 32.7284193, -50.0000000, 34.8269339, -0.1979400, -31.5302691, 0.0000000, 0.0000000, -0.0000000, 0.0000000, -0.0000000, -0.0000000
-107.5896861, -73.7978559, 71.5000000, -64.8736337, 89.6198522, 121.0383969, 0.0000000, 3.5774458, 93.5000000, 2.0000000, 0.0100000, 165.4564024, 501.1065997, 659.6430659, 28.0269058, 32.7284193, -50.0000000, 34.8269339, -0.1979400, -31.5302691, 0.0000000, -0.0000000, 0.0000000, -0.0000000, 0.0000000, 0.0000000
-107.3094170, -73.4705717, 71.0000000, -64.5253643, 89.6178728, 120.7230942, 0.0000000, 3.5734793, 94.0000000, 2.0000000, 0.0100000, 163.1334015, 502.3165570, 662.0739967, 28.0269058, 32.7284193, -50.0000000, 34.8269339, -0.1979400, -31.5302691, 0.0000000, 0.0000000, -0.0000000, 0.0000000, 0.0000000, -0.0000000
-107.0291480, -73.1432876, 70.5000000, -64.1770950, 89.6158934, 120.4077915, 0.0000000, 3.5694743, 94.5000000, 2.0000000, 0.0100000, 160.7987846, 503.5035753, 664.4992180, 28.0269058, 32.7284193, -50.0000000, 34.8269339, -0.1979400, -31.5302691, -0.0000000, -0.0000000, 0.0000000, -0.0000000, 0.0000000, 0.0000000
-106.7488789, -72.8160034, 70.0000000, -63.8288257, 89.6139140, 120.0924888, 0.0000000, 3.5654310, 95.0000000, 2.0000000, 0.0100000, 158.4527832, 504.6675616, 666.9186625, 28.0269058, 32.7284193, -50.0000000, 34.8269339, -0.1979400, -31.5302691, 0.0000000, 0.0000000, -0.0000000, 0.0000000, 0.0000000, -0.0000000
-106.4686099, -72.4887192, 69.5000000, -63.4805563, 89.6119346, 119.7771861, 0.0000000, 3.5613495, 95.5000000, 2.0000000, 0.0100000, 156.0956295, 505.8084249, 669.3322630, 28.0269058, 32.7284193, -50.0000000, 34.8269339, -0.1979400, -31.5302691, -0.0000000, -0.0000000, 0.0000000, -0.0000000, 0.0000000, 0.0000000
-106.1883408, -72.1614350, 69.0000000, -63.1322870, 89.6099552, 119.4618834, 0.0000000, 3.5572300, 96.0000000, 2.0000000, 0.0100000, 153.7275564, 506.9260769, 671.7399525, 28.0269058, 32.7284193, -50.0000000, 34.8269339, -0.1979400, -31.5302691, 0.0000000, 0.0000000, -0.0000000, 0.0000000, 0.0000000, -0.0000000
-105.9080717, -71.8341508, 68.5000000, -62.7840177, 89.6079758, 119.1465807, 0.0000000, 3.5530726, 96.5000000, 2.0000000, 0.0100000, 151.3487975, 508.0204315, 674.1416641, 28.0269058, 32.7284193, -50.0000000, 34.8269339, -0.1979400, -31.5302691, 0.0000000, -0.0000000, 0.0000000, -0.0000000, 0.0000000, 0.0000000
-105.6278027, -71.5068666, 68.0000000, -62.4357483, 89.6059964, 118.8312780, 0.0000000, 3.5488775, 97.0000000, 2.0000000, 0.0100000, 148.9595870, 509.0914051, 676.5373311, 28.0269058, 32.7284193, -50.0000000, 34.8269339, -0.1979400, -31.5302691, 0.0000000, 0.0000000, -0.0000000, 0.0000000, -0.0000000, -0.0000000
-105.3475336, -71.1795824, 67.5000000, -62.0874790, 89.6040170, 118.5159753, 0.0000000, 3.5446449, 97.5000000, 2.0000000, 0.0100000, 146.5601598, 510.1389166, 678.9268869, 28.0269058, 32.7284193, -50.0000000, 34.8269339, -0.1979400, -31.5302691, -0.0000000, -0.0000000, 0.0000000, -0.0000000, 0.0000000, 0.0000000
-105.0672646, -70.8522982, 67.0000000, -61.7392096, 89.6020376, 118.2006726, 0.0000000, 3.5403750, 98.0000000, 2.0000000, 0.0100000, 144.1507515, 511.1628871, 681.3102649, 28.0269058, 32.7284193, -50.0000000, 34.8269339, -0.1979400, -31.5302691, 0.0000000, 0.0000000, -0.0000000, 0.0000000, 0.0000000, -0.0000000
-104.7869955, -70.5250140, 66.5000000, -61.3909403, 89.6000582, 117.8853700, 0.0000000, 3.5360679, 98.5000000, 2.0000000, 0.0100000, 141.7315979, 512.1632403, 683.6873989, 28.0269058, 32.7284193, -50.0000000, 34.8269339, -0.1979400, -31.5302691, 0.0000000, -0.0000000, 0.0000000, -0.0000000, 0.0000000, 0.0000000
-104.5067265, -70.1977298, 66.0000000, -61.0426710, 89.5980788, 117.5700673, 0.0000000, 3.5317238, 99.0000000, 2.0000000, 0.0100000, 139.3029359, 513.1399023, 686.0582226, 28.0269058, 32.7284193, -50.0000000, 34.8269339, -0.1979400, -31.5302691, 0.0000000, 0.0000000, -0.0000000, 0.0000000, 0.0000000, 0.0000000
-104.2264574, -69.8704456, 65.5000000, -60.6944016, 89.5960994, 117.2547646, 0.0000000, 3.5273429, 99.5000000, 2.0000000, 0.0100000, 136.8650026, 514.0928016, 688.4226700, 28.0269058, 32.7284193, -50.0000000, 34.8269339, -0.1979400, -31.5302691, -0.0000000, -0.0000000, 0.0000000, -0.0000000, 0.0000000, 0.0000000
-103.9461883, -69.5431614, 65.0000000, -60.3461323, 89.5941200, 116.9394619, 0.0000000, 3.5229253, 100.0000000, 2.0000000, 0.0100000, 134.4180356, 515.0218691, 690.7806753, 28.0269058, 32.7284193, -50.0000000, 34.8269339, -0.1979400, -31.5302691, 0.0000000, 0.0000000, -0.0000000, 0.0000000, 0.0000000, -0.0000000
-103.6659193, -69.2158772, 64.5000000, -59.9978629, 89.5921406, 116.6241592, 0.0000000, 3.5184713, 100.5000000, 2.0000000, 0.0100000, 131.9622731, 515.9270383, 693.1321727, 28.0269058, 32.7284193, -50.0000000, 34.8269339, -0.1979400, -31.5302691, -0.0000000, -0.0000000, 0.0000000, -0.0000000, 0.0000000, 0.0000000
-103.3856502, -68.8885930, 64.0000000, -59.6495936, 89.5901612, 116.3088565, 0.0000000, 3.5139811, 101.0000000, 2.0000000, 0.0100000, 129.4979537, 516.8082449, 695.4770965, 28.0269058, 32.7284193, -50.0000000, 34.8269339, -0.1979400, -31.5302691, 0.0000000, 0.0000000, -0.0000000, 0.0000000, -0.0000000, -0.0000000
-103.1053812, -68.5613089, 63.5000000, -59.3013243, 89.5881818, 115.9935538, 0.0000000, 3.5094548, 101.5000000, 2.0000000, 0.0100000, 127.0253164, 517.6654272, 697.8153814, 28.0269058, 32.7284193, -50.0000000, 34.8269339, -0.1979400, -31.5302691, 0.0000000, -0.0000000, 0.0000000, -0.0000000, 0.0000000, 0.0000000
-102.8251121, -68.2340247, 63.0000000, -58.9530549, 89.5862024, 115.6782511, 0.0000000, 3.5048926, 102.0000000, 2.0000000, 0.0100000, 124.5446008, 518.4985260, 700.1469621, 28.0269058, 32.7284193, -50.0000000, 34.8269339, -0.1979400, -31.5302691, 0.0000000, 0.0000000, -0.0000000, 0.0000000, 0.0000000, -0.0000000
-102.5448430, -67.9067405, 62.5000000, -58.6047856, 89.5842230, 115.3629484, 0.0000000, 3.5002948, 102.5000000, 2.0000000, 0.0100000, 122.0560466, 519.3074845, 702.4717735, 28.0269058, 32.7284193, -50.0000000, 34.8269339, -0.1979400, -31.5302691, -0.0000000, -0.0000000, 0.0000000, -0.0000000, 0.0000000, 0.0000000
-102.2645740, -67.5794563, 62.0000000, -58.2565163, 89.5822436, 115.0476457, 0.0000000, 3.4956615, 103.0000000, 2.0000000, 0.0100000, 119.5598940, 520.0922482, 704.7897506, 28.0269058, 32.7284193, -50.0000000, 34.8269339, -0.1979400, -31.5302691, 0.0000000, 0.0000000, -0.0000000, 0.0000000, 0.0000000, -0.0000000
-101.9843049, -67.2521721, 61.5000000, -57.9082469, 89.5802642, 114.7323430, 0.0000000, 3.4909930, 103.5000000, 2.0000000, 0.0100000, 117.0563836, 520.8527652, 707.1008286, 28.0269058, 32.7284193, -50.0000000, 34.8269339, -0.1979400, -31.5302691, 0.0000000, -0.0000000, 0.0000000, -0.0000000, 0.0000000, 0.0000000
-101.7040359, -66.9248879, 61.0000000, -57.5599776, 89.5782848, 114.4170404, 0.0000000, 3.4862895, 104.0000000, 2.0000000, 0.0100000, 114.5457561, 521.5889861, 709.4049430, 28.0269058, 32.7284193, -50.0000000, 34.8269339, -0.1979400, -31.5302691, 0.0000000, 0.0000000, -0.0000000, 0.0000000, 0.0000000, 0.0000000
-101.4237668, -66.5976037, 60.5000000, -57.2117082, 89.5763054, 114.1017377, 0.0000000, 3.4815511, 104.5000000, 2.0000000, 0.0100000, 112.0282528, 522.3008638, 711.7020292, 28.0269058, 32.7284193, -50.0000000, 34.8269339, -0.1979400, -31.5302691, 0.0000000, 0.0000000, -0.0000000, 0.0000000, 0.0000000, -0.0000000
-101.1434978, -66.2703195, 60.0000000, -56.8634389, 89.5743260, 113.7864350, 0.0000000, 3.4767781, 105.0000000, 2.0000000, 0.0100000, 109.5041149, 522.9883538, 713.9920229, 28.0269058, 32.7284193, -50.0000000, 34.8269339, -0.1979400, -31.5302691, -0.0000000, -0.0000000, 0.0000000, -0.0000000, -0.0000000, 0.0000000
-100.8632287, -65.9430353, 59.5000000, -56.5151696, 89.5723466, 113.4711323, 0.0000000, 3.4719708, 105.5000000, 2.0000000, 0.0100000, 106.9735840, 523.6514141, 716.2748601, 28.0269058, 32.7284193, -50.0000000, 34.8269339, -0.1979400, -31.5302691, 0.0000000, 0.0000000, -0.0000000, 0.0000000, 0.0000000, -0.0000000
-100.5829596, -65.6157511, 59.0000000, -56.1669002, 89.5703672, 113.1558296, 0.0000000, 3.4671292, 106.0000000, 2.0000000, 0.0100000, 104.4369020, 524.2900049, 718.5504768, 28.0269058, 32.7284193, -50.0000000, 34.8269339, -0.1979400, -31.5302691, -0.0000000, -0.0000000, 0.0000000, -0.0000000, 0.0000000, 0.0000000
-100.3026906, -65.2884669, 58.5000000, -55.8186309, 89.5683878, 112.8405269, 0.0000000, 3.4622538, 106.5000000, 2.0000000, 0.0100000, 101.8943108, 524.9040891, 720.8188092, 28.0269058, 32.7284193, -50.0000000, 34.8269339, -0.1979400, -31.5302691, 0.0000000, 0.0000000, -0.0000000, 0.0000000, 0.0000000, -0.0000000
-100.0224215, -64.9611827, 58.0000000, -55.4703615, 89.5664084, 112.5252242, 0.0000000, 3.4573446, 107.0000000, 2.0000000, 0.0100000, 99.3460526, 525.4936320, 723.0797937, 28.0269058, 32.7284193, -50.0000000, 34.8269339, -0.1979400, -31.5302691, -0.0000000, -0.0000000, 0.0000000, -0.0000000, 0.0000000, 0.0000000
-99.7421525, -64.6338985, 57.5000000, -55.1220922, 89.5644290, 112.2099215, 0.0000000, 3.4524020, 107.5000000, 2.0000000, 0.0100000, 96.7923696, 526.0586014, 725.3333670, 28.0269058, 32.7284193, -50.0000000, 34.8269339, -0.1979400, -31.5302691, 0.0000000, 0.0000000, -0.0000000, 0.0000000, 0.0000000, -0.0000000
-99.4618834, -64.3066143, 57.0000000, -54.7738229, 89.5624496, 111.8946188, 0.0000000, 3.4474262, 108.0000000, 2.0000000, 0.0100000, 94.2335041, 526.5989673, 727.5794657, 28.0269058, 32.7284193, -50.0000000, 34.8269339, -0.1979400, -31.5302691, -0.0000000, -0.0000000, 0.0000000, -0.0000000, 0.0000000, 0.0000000
-99.1816143, -63.9793302, 56.5000000, -54.4255535, 89.5604702, 111.5793161, 0.0000000, 3.4424173, 108.5000000, 2.0000000, 0.0100000, 91.6696987, 527.1147025, 729.8180269, 28.0269058, 32.7284193, -50.0000000, 34.8269339, -0.1979400, -31.5302691, 0.0000000, 0.0000000, -0.0000000, 0.0000000, 0.0000000, -0.0000000
-98.9013453, -63.6520460, 56.0000000, -54.0772842, 89.5584908, 111.2640135, 0.0000000, 3.4373758, 109.0000000, 2.0000000, 0.0100000, 89.1011958, 527.6057821, 732.0489876, 28.0269058, 32.7284193, -50.0000000, 34.8269339, -0.1979400, -31.5302691, 0.0000000, -0.0000000, 0.0000000, -0.0000000, 0.0000000, 0.0000000
-98.6210762, -63.3247618, 55.5000000, -53.7290149, 89.5565114, 110.9487108, 0.0000000, 3.4323017, 109.5000000, 2.0000000, 0.0100000, 86.5282380, 528.0721837, 734.2722852, 28.0269058, 32.7284193, -50.0000000, 34.8269339, -0.1979400, -31.5302691, 0.0000000, 0.0000000, -0.0000000, 0.0000000, -0.0000000, -0.0000000
-98.3408072, -62.9974776, 55.0000000, -53.3807455, 89.5545320, 110.6334081, 0.0000000, 3.4271954, 110.0000000, 2.0000000, 0.0100000, 83.9510677, 528.5138872, 736.4878573, 28.0269058, 32.7284193, -50.0000000, 34.8269339, -0.1979400, -31.5302691, -0.0000000, -0.0000000, 0.0000000, -0.0000000, 0.0000000, 0.0000000
-98.0605381, -62.6701934, 54.5000000, -53.0324762, 89.5525526, 110.3181054, 0.0000000, 3.4220571, 110.5000000, 2.0000000, 0.0100000, 81.3699275, 528.9308752, 738.6956414, 28.0269058, 32.7284193, -50.0000000, 34.8269339, -0.1979400, -31.5302691, 0.0000000, 0.0000000, -0.0000000, 0.0000000, 0.0000000, -0.0000000
-97.7802691, -62.3429092, 54.0000000, -52.6842068, 89.5505732, 110.0028027, 0.0000000, 3.4168870, 111.0000000, 2.0000000, 0.0100000, 78.7850599, 529.3231325, 740.8955756, 28.0269058, 32.7284193, -50.0000000, 34.8269339, -0.1979400, -31.5302691, -0.0000000, -0.0000000, 0.0000000, -0.0000000, 0.0000000, 0.0000000
-97.5000000, -62.0156250, 53.5000000, -52.3359375, 89.5485937, 109.6875000, 0.0000000, 3.4116855, 111.5000000, 2.0000000, 0.0100000, 76.1967071, 529.6906465, 743.0875978, 28.0269058, 32.7284193, -50.0000000, 34.8269339, -0.1979400, -31.5302691, 0.0000000, 0.0000000, -0.0000000, 0.0000000, 0.0000000, -0.0000000
-97.2197309, -61.6883408, 53.0000000, -51.9876682, 89.5466143, 109.3721973, 0.0000000, 3.4064528, 112.0000000, 2.0000000, 0.0100000, 73.6051116, 530.0334072, 745.2716464, 28.0269058, 32.7284193, -50.0000000, 34.8269339, -0.1979400, -31.5302691, -0.0000000, -0.0000000, 0.0000000, -0.0000000, 0.0000000, 0.0000000
-96.9394619, -61.3610566, 52.5000000, -51.6393988, 89.5446349, 109.0568946, 0.0000000, 3.4011891, 112.5000000, 2.0000000, 0.0100000, 71.0105155, 530.3514065, 747.4476599, 28.0269058, 32.7284193, -50.0000000, 34.8269339, -0.1979400, -31.5302691, 0.0000000, 0.0000000, -0.0000000, 0.0000000, 0.0000000, -0.0000000
-96.6591928, -61.0337724, 52.0000000, -51.2911295, 89.5426555, 108.7415919, 0.0000000, 3.3958948, 113.0000000, 2.0000000, 0.0100000, 68.4131608, 530.6446394, 749.6155769, 28.0269058, 32.7284193, -50.0000000, 34.8269339, -0.1979400, -31.5302691, -0.0000000, -0.0000000, 0.0000000, -0.0000000, 0.0000000, 0.0000000
-96.3789238, -60.7064882, 51.5000000, -50.9428601, 89.5406761, 108.4262892, 0.0000000, 3.3905700, 113.5000000, 2.0000000, 0.0100000, 65.8132894, 530.9131029, 751.7753364, 28.0269058, 32.7284193, -50.0000000, 34.8269339, -0.1979400, -31.5302691, 0.0000000, 0.0000000, -0.0000000, 0.0000000, -0.0000000, -0.0000000
-96.0986547, -60.3792040, 51.0000000, -50.5945908, 89.5386967, 108.1109865, 0.0000000, 3.3852152, 114.0000000, 2.0000000, 0.0100000, 63.2111429, 531.1567965, 753.9268774, 28.0269058, 32.7284193, -50.0000000, 34.8269339, -0.1979400, -31.5302691, 0.0000000, -0.0000000, 0.0000000, -0.0000000, 0.0000000, 0.0000000
-95.8183857, -60.0519198, 50.5000000, -50.2463215, 89.5367173, 107.7956839, 0.0000000, 3.3798305, 114.5000000, 2.0000000, 0.0100000, 60.6069627, 531.3757223, 756.0701392, 28.0269058, 32.7284193, -50.0000000, 34.8269339, -0.1979400, -31.5302691, 0.0000000, 0.0000000, -0.0000000, 0.0000000, 0.0000000, -0.0000000
-95.5381166, -59.7246357, 50.0000000, -49.8980521, 89.5347379, 107.4803812, 0.0000000, 3.3744162, 115.0000000, 2.0000000, 0.0100000, 58.0009900, 531.5698846, 758.2050613, 28.0269058, 32.7284193, -50.0000000, 34.8269339, -0.1979400, -31.5302691, -0.0000000, -0.0000000, 0.0000000, -0.0000000, 0.0000000, 0.0000000
-95.2578475, -59.3973515, 49.5000000, -49.5497828, 89.5327585, 107.1650785, 0.0000000, 3.3689727, 115.5000000, 2.0000000, 0.0100000, 55.3934658, 531.7392902, 760.3315835, 28.0269058, 32.7284193, -50.0000000, 34.8269339, -0.1979400, -31.5302691, 0.0000000, 0.0000000, -0.0000000, 0.0000000, 0.0000000, -0.0000000
-94.9775785, -59.0700673, 49.0000000, -49.2015135, 89.5307791, 106.8497758, 0.0000000, 3.3635003, 116.0000000, 2.0000000, 0.0100000, 52.7846307, 531.8839485, 762.4496457, 28.0269058, 32.7284193, -50.0000000, 34.8269339, -0.1979400, -31.5302691, -0.0000000, -0.0000000, 0.0000000, -0.0000000, 0.0000000, 0.0000000
-94.6973094, -58.7427831, 48.5000000, -48.8532441, 89.5287997, 106.5344731, 0.0000000, 3.3579991, 116.5000000, 2.0000000, 0.0100000, 50.1747250, 532.0038710, 764.5591880, 28.0269058, 32.7284193, -50.0000000, 34.8269339, -0.1979400, -31.5302691, 0.0000000, 0.0000000, -0.0000000, 0.0000000, 0.0000000, 0.0000000
-94.4170404, -58.4154989, 48.0000000, -48.5049748, 89.5268203, 106.2191704, 0.0000000, 3.3524696, 117.0000000, 2.0000000, 0.0100000, 47.5639885, 532.0990717, 766.6601508, 28.0269058, 32.7284193, -50.0000000, 34.8269339, -0.1979400, -31.5302691, 0.0000000, 0.0000000, -0.0000000, 0.0000000, 0.0000000, -0.0000000
-94.1367713, -58.0882147, 47.5000000, -48.1567054, 89.5248409, 105.9038677, 0.0000000, 3.3469120, 117.5000000, 2.0000000, 0.0100000, 44.9526611, 532.1695672, 768.7524746, 28.0269058, 32.7284193, -50.0000000, 34.8269339, -0.1979400, -31.5302691, -0.0000000, -0.0000000, 0.0000000, -0.0000000, -0.0000000, 0.0000000
-93.8565022, -57.7609305, 47.0000000, -47.8084361, 89.5228615, 105.5885650, 0.0000000, 3.3413266, 118.0000000, 2.0000000, 0.0100000, 42.3409817, 532.2153763, 770.8361002, 28.0269058, 32.7284193, -50.0000000, 34.8269339, -0.1979400, -31.5302691, 0.0000000, 0.0000000, -0.0000000, 0.0000000, 0.0000000, -0.0000000
-93.5762332, -57.4336463, 46.5000000, -47.4601668, 89.5208821, 105.2732623, 0.0000000, 3.3357138, 118.5000000, 2.0000000, 0.0100000, 39.7291892, 532.2365201, 772.9109688, 28.0269058, 32.7284193, -50.0000000, 34.8269339, -0.1979400, -31.5302691, -0.0000000, -0.0000000, 0.0000000, -0.0000000, 0.0000000, 0.0000000
-93.2959641, -57.1063621, 46.0000000, -47.1118974, 89.5189027, 104.9579596, 0.0000000, 3.3300738, 119.0000000, 2.0000000, 0.0100000, 37.1175220, 532.2330223, 774.9770214, 28.0269058, 32.7284193, -50.0000000, 34.8269339, -0.1979400, -31.5302691, 0.0000000, 0.0000000, -0.0000000, 0.0000000, 0.0000000, -0.0000000
-93.0156951, -56.7790779, 45.5000000, -46.7636281, 89.5169233, 104.6426570, 0.0000000, 3.3244070, 119.5000000, 2.0000000, 0.0100000, 34.5062179, 532.2049089, 777.0341996, 28.0269058, 32.7284193, -50.0000000, 34.8269339, -0.1979400, -31.5302691, -0.0000000, -0.0000000, 0.0000000, -0.0000000, 0.0000000, 0.0000000
-92.7354260, -56.4517937, 45.0000000, -46.4153587, 89.5149439, 104.3273543, 0.0000000, 3.3187136, 120.0000000, 2.0000000, 0.0100000, 31.8955143, 532.1522081, 779.0824451, 28.0269058, 32.7284193, -50.0000000, 34.8269339, -0.1979400, -31.5302691, 0.0000000, 0.0000000, -0.0000000, 0.0000000, 0.0000000, -0.0000000
-92.4551570, -56.1245095, 44.5000000, -46.0670894, 89.5129645, 104.0120516, 0.0000000, 3.3129941, 120.5000000, 2.0000000, 0.0100000, 29.2856480, 532.0749508, 781.1216997, 28.0269058, 32.7284193, -50.0000000, 34.8269339, -0.1979400, -31.5302691, -0.0000000, -0.0000000, 0.0000000, -0.0000000, 0.0000000, 0.0000000
-92.1748879, -55.7972253, 44.0000000, -45.7188201, 89.5109851, 103.6967489, 0.0000000, 3.3072487, 121.0000000, 2.0000000, 0.0100000, 26.6768555, 531.9731699, 783.1519056, 28.0269058, 32.7284193, -50.0000000, 34.8269339, -0.1979400, -31.5302691, 0.0000000, 0.0000000, -0.0000000, 0.0000000, 0.0000000, -0.0000000
-91.8946188, -55.4699411, 43.5000000, -45.3705507, 89.5090057, 103.3814462, 0.0000000, 3.3014777, 121.5000000, 2.0000000, 0.0100000, 24.0693725, 531.8469009, 785.1730053, 28.0269058, 32.7284193, -50.0000000, 34.8269339, -0.1979400, -31.5302691, -0.0000000, -0.0000000, 0.0000000, -0.0000000, -0.0000000, 0.0000000
-91.6143498, -55.1426570, 43.0000000, -45.0222814, 89.5070263, 103.0661435, 0.0000000, 3.2956816, 122.0000000, 2.0000000, 0.0100000, 21.4634342, 531.6961814, 787.1849412, 28.0269058, 32.7284193, -50.0000000, 34.8269339, -0.1979400, -31.5302691, 0.0000000, 0.0000000, -0.0000000, 0.0000000, 0.0000000, -0.0000000
-91.3340807, -54.8153728, 42.5000000, -44.6740121, 89.5050469, 102.7508408, 0.0000000, 3.2898606, 122.5000000, 2.0000000, 0.0100000, 18.8592751, 531.5210516, 789.1876563, 28.0269058, 32.7284193, -50.0000000, 34.8269339, -0.1979400, -31.5302691, -0.0000000, -0.0000000, 0.0000000, -0.0000000, 0.0000000, 0.0000000
-91.0538117, -54.4880886, 42.0000000, -44.3257427, 89.5030675, 102.4355381, 0.0000000, 3.2840150, 123.0000000, 2.0000000, 0.0100000, 16.2571293, 531.3215539, 791.1810937, 28.0269058, 32.7284193, -50.0000000, 34.8269339, -0.1979400, -31.5302691, 0.0000000, 0.0000000, -0.0000000, 0.0000000, 0.0000000, -0.0000000
-90.7735426, -54.1608044, 41.5000000, -43.9774734, 89.5010881, 102.1202354, 0.0000000, 3.2781453, 123.5000000, 2.0000000, 0.0100000, 13.6572301, 531.0977329, 793.1651967, 28.0269058, 32.7284193, -50.0000000, 34.8269339, -0.1979400, -31.5302691, -0.0000000, -0.0000000, 0.0000000, -0.0000000, 0.0000000, 0.0000000
-90.4932735, -53.8335202, 41.0000000, -43.6292040, 89.4991087, 101.8049327, 0.0000000, 3.2722517, 124.0000000, 2.0000000, 0.0100000, 11.0598099, 530.8496356, 795.1399088, 28.0269058, 32.7284193, -50.0000000, 34.8269339, -0.1979400, -31.5302691, 0.0000000, 0.0000000, -0.0000000, 0.0000000, 0.0000000, -0.0000000
-90.2130045, -53.5062360, 40.5000000, -43.2809347, 89.4971293, 101.4896300, 0.0000000, 3.2663347, 124.5000000, 2.0000000, 0.0100000, 8.4651009, 530.5773114, 797.1051739, 28.0269058, 32.7284193, -50.0000000, 34.8269339, -0.1979400, -31.5302691, -0.0000000, -0.0000000, 0.0000000, -0.0000000, 0.0000000, 0.0000000
-89.9327354, -53.1789518, 40.0000000, -42.9326654, 89.4951499, 101.1743274, 0.0000000, 3.2603945, 125.0000000, 2.0000000, 0.0100000, 5.8733342, 530.2808118, 799.0609360, 28.0269058, 32.7284193, -50.0000000, 34.8269339, -0.1979400, -31.5302691, 0.0000000, 0.0000000, -0.0000000, 0.0000000, 0.0000000, -0.0000000
-89.6524664, -52.8516676, 39.5000000, -42.5843960, 89.4931705, 100.8590247, 0.0000000, 3.2544315, 125.5000000, 2.0000000, 0.0100000, 3.2847402, 529.9601908, 801.0071394, 28.0269058, 32.7284193, -50.0000000, 34.8269339, -0.1979400, -31.5302691, -0.0000000, -0.0000000, 0.0000000, -0.0000000, 0.0000000, 0.0000000
-89.3721973, -52.5243834, 39.0000000, -42.2361267, 89.4911911, 100.5437220, 0.0000000, 3.2484461, 126.0000000, 2.0000000, 0.0100000, 0.6995486, 529.6155043, 802.9437287, 28.0269058, 32.7284193, -50.0000000, 34.8269339, -0.1979400, -31.5302691, 0.0000000, 0.0000000, -0.0000000, 0.0000000, -0.0000000, -0.0000000
-89.0919283, -52.1970992, 38.5000000, -41.8878573, 89.4892117, 100.2284193, 0.0000000, 3.2424387, 126.5000000, 2.0000000, 0.0100000, -1.8820116, 529.2468109, 804.8706486, 28.0269058, 32.7284193, -50.0000000, 34.8269339, -0.1979400, -31.5302691, -0.0000000, -0.0000000, 0.0000000, -0.0000000, 0.0000000, 0.0000000
-88.8116592, -51.8698150, 38.0000000, -41.5395880, 89.4872323, 99.9131166, 0.0000000, 3.2364095, 127.0000000, 2.0000000, 0.0100000, -4.4597124, 528.8541712, 806.7878442, 28.0269058, 32.7284193, -50.0000000, 34.8269339, -0.1979400, -31.5302691, 0.0000000, 0.0000000, -0.0000000, 0.0000000, 0.0000000, -0.0000000
-88.5313901, -51.5425308, 37.5000000, -41.1913187, 89.4852529, 99.5978139, 0.0000000, 3.2303591, 127.5000000, 2.0000000, 0.0100000, -7.0333266, 528.4376480, 808.6952609, 28.0269058, 32.7284193, -50.0000000, 34.8269339, -0.1979400, -31.5302691, -0.0000000, -0.0000000, 0.0000000, -0.0000000, 0.0000000, 0.0000000
-88.2511211, -51.2152466, 37.0000000, -40.8430493, 89.4832735, 99.2825112, 0.0000000, 3.2242877, 128.0000000, 2.0000000, 0.0100000, -9.6026278, 527.9973064, 810.5928442, 28.0269058, 32.7284193, -50.0000000, 34.8269339, -0.1979400, -31.5302691, 0.0000000, 0.0000000, -0.0000000, 0.0000000, 0.0000000, -0.0000000
-87.9708520, -50.8879624, 36.5000000, -40.4947800, 89.4812941, 98.9672085, 0.0000000, 3.2181958, 128.5000000, 2.0000000, 0.0100000, -12.1673903, 527.5332138, 812.4805398, 28.0269058, 32.7284193, -50.0000000, 34.8269339, -0.1979400, -31.5302691, 0.0000000, 0.0000000, 0.0000000, -0.0000000, 0.0000000, 0.0000000
-87.6905830, -50.5606783, 36.0000000, -40.1465107, 89.4793147, 98.6519058, 0.0000000, 3.2120836, 129.0000000, 2.0000000, 0.0100000, -14.7273898, 527.0454397, 814.3582940, 28.0269058, 32.7284193, -50.0000000, 34.8269339, -0.1979400, -31.5302691, -0.0000000, -0.0000000, 0.0000000, 0.0000000, 0.0000000, -0.0000000
-87.4103139, -50.2333941, 35.5000000, -39.7982413, 89.4773353, 98.3366031, 0.0000000, 3.2059517, 129.5000000, 2.0000000, 0.0100000, -17.2824024, 526.5340558, 816.2260529, 28.0269058, 32.7284193, -50.0000000, 34.8269339, -0.1979400, -31.5302691, 0.0000000, 0.0000000, 0.0000000, -0.0000000, 0.0000000, 0.0000000
-87.1300448, -49.9061099, 35.0000000, -39.4499720, 89.4753559, 98.0213004, 0.0000000, 3.1998004, 130.0000000, 2.0000000, 0.0100000, -19.8322054, 525.9991360, 818.0837632, 28.0269058, 32.7284193, -50.0000000, 34.8269339, -0.1979400, -31.5302691, -0.0000000, -0.0000000, 0.0000000, 0.0000000, -0.0000000, -0.0000000
-86.8497758, -49.5788257, 34.5000000, -39.1017026, 89.4733765, 97.7059978, 0.0000000, 3.1936300, 130.5000000, 2.0000000, 0.0100000, -22.3765772, 525.4407564, 819.9313718, 28.0269058, 32.7284193, -50.0000000, 34.8269339, -0.1979400, -31.5302691, 0.0000000, 0.0000000, 0.0000000, 0.0000000, 0.0000000, 0.0000000
-86.5695067, -49.2515415, 34.0000000, -38.7534333, 89.4713971, 97.3906951, 0.0000000, 3.1874411, 131.0000000, 2.0000000, 0.0100000, -24.9152968, 524.8589952, 821.7688258, 28.0269058, 32.7284193, -50.0000000, 34.8269339, -0.1979400, -31.5302691, 0.0000000, -0.0000000, 0.0000000, -0.0000000, 0.0000000, -0.0000000
-86.2892377, -48.9242573, 33.5000000, -38.4051640, 89.4694177, 97.0753924, 0.0000000, 3.1812339, 131.5000000, 2.0000000, 0.0100000, -27.4481446, 524.2539329, 823.5960725, 28.0269058, 32.7284193, -50.0000000, 34.8269339, -0.1979400, -31.5302691, -0.0000000, 0.0000000, 0.0000000, 0.0000000, 0.0000000, 0.0000000
-86.0089686, -48.5969731, 33.0000000, -38.0568946, 89.4674383, 96.7600897, 0.0000000, 3.1750089, 132.0000000, 2.0000000, 0.0100000, -29.9749018, 523.6256518, 825.4130596, 28.0269058, 32.7284193, -50.0000000, 34.8269339, -0.1979400, -31.5302691, 0.0000000, 0.0000000, 0.0000000, 0.0000000, 0.0000000, -0.0000000
-85.7286996, -48.2696889, 32.5000000, -37.7086253, 89.4654589, 96.4447870, 0.0000000, 3.1687665, 132.5000000, 2.0000000, 0.0100000, -32.4953508, 522.9742367, 827.2197352, 28.0269058, 32.7284193, -50.0000000, 34.8269339, -0.1979400, -31.5302691, -0.0000000, -0.0000000, 0.0000000, -0.0000000, 0.0000000, 0.0000000
